; generated by SuperSlicer 2.5.59.13 on 2025-11-14 at 08:23:59 UTC

; 

; external perimeters extrusion width = 0.30mm
; perimeters extrusion width = 0.30mm
; infill extrusion width = 0.30mm
; solid infill extrusion width = 0.30mm
; top infill extrusion width = 0.30mm


M106 S255
M140 S50 ; set bed temperature
G10 P0 R220 ; sets the standby temperature
G10 P0 S220 ; set temperature
;TYPE:Custom
G1 E0.7 F1800
G21 ; set units to millimeters
G90 ; use absolute coordinates
M83 ; use relative distances for extrusion
; FILAMENT_START_GCODE
G10 P0 S220 ; set temperature
M116 ; wait for temperature to be reached
M190 S50 ; set bed temperature and wait for it to be reached
;LAYER_CHANGE
;Z:38.2
;HEIGHT:38.200001
; BEFORE_LAYER_CHANGE
;38.2
G92 E0

G1 E-0.7 F2100
G1  Z6.2 F9000
G1  Z35.591
; AFTER_LAYER_CHANGE
;38.2
G1  Z35.791
M204 P1000 T1000
G1 X-0.852 Y1.67 Z36.395
G1 X-1.704 Y3.339 Z36.972
G1 X-2.556 Y5.009 Z37.543
G1 X-3.408 Y6.678 Z38.114
G1 X-4.26 Y8.348 Z38.4
G1 X-5.113 Y10.018 Z38.189
G1 X-5.965 Y11.687 Z38.034
G1 X-6.817 Y13.357 Z37.989
G1 X-7.669 Y15.026 Z38.123
G1 X-8.521 Y16.696 Z38.4
G1  Z38.2
G1 E0.7 F2100
;TYPE:Solid infill
;WIDTH:0.268754
;HEIGHT:0.2
M106 S255
G1 F1200
G1 X-8.109 Y17.109 Z38.2 E0.01005
G1 X-8.109 Y17.472 Z38.2 E0.00627
G1 X-8.776 Y16.805 Z38.2 E0.01626
G1 X-9.142 Y16.803 Z38.2 E0.0063
G1 X-8.109 Y17.836 Z38.2 E0.02517
G1 X-8.109 Y18.065 Z38.2 E0.00396
G1 X-8.202 Y18.106 Z38.2 E0.00175
G1 X-9.507 Y16.801 Z38.2 E0.03182
G1 X-9.873 Y16.799 Z38.2 E0.0063
G1 X-8.472 Y18.2 Z38.2 E0.03416
G1 X-8.752 Y18.283 Z38.2 E0.00504
G1 X-9.496 Y17.54 Z38.2 E0.01812
G1 X-10.239 Y16.796 Z38.2 E0.01812
G1 X-10.281 Y16.796 Z38.2 E0.0
G1 X-10.603 Y16.796 Z38.2 E0.00555
G1 X-9.834 Y17.564 Z38.2 E0.01874
G1 X-9.066 Y18.333 Z38.2 E0.01874
G1 X-9.385 Y18.378 Z38.2 E0.00555
G1 X-10.138 Y17.624 Z38.2 E0.018355
G1 X-10.891 Y16.871 Z38.2 E0.018355
G1 X-10.891 Y17.235 Z38.2 E0.00627
G1 X-9.743 Y18.383 Z38.2 E0.02799
G1 X-10.104 Y18.385 Z38.2 E0.00623
G1 X-10.891 Y17.599 Z38.2 E0.01918
G1 X-10.891 Y17.962 Z38.2 E0.00627
G1 X-10.466 Y18.388 Z38.2 E0.01037
G1 X-10.827 Y18.39 Z38.2 E0.00623
G1 X-11.002 Y18.215 Z38.2 E0.00425
M106 S255
G1 E-0.63 F2100
;WIPE_START
G1 F7200
G1 X-10.832 Y18.385 Z38.2 E-0.0665
;WIPE_END
G1 E-0.0035 F2100
G1  Z38.4 F9000
; acceleration to travel
M204 P1000 T1500
G1 X-9.663 Y17.677 Z38.4
G1 X-8.493 Y16.969 Z38.4
; decel to extrusion
M204 P1000 T1000
G1 X-7.921 Y16.623 Z38.4
; end travel
M204 P1000 T1500
G1  Z38.2
G1 E0.7 F2100
;TYPE:Internal perimeter
;WIDTH:0.299999
M106 S255
G1 F1200
G1 X-8.703 Y16.609 Z38.2 E0.01504 F180.0
G1 X-9.294 Y16.618 Z38.2 E0.01137
G1 X-10.084 Y16.611 Z38.2 E0.01521
G1 X-11.079 Y16.608 Z38.2 E0.01913
G1 X-11.079 Y18.579 Z38.2 E0.03792
G1 X-9.652 Y18.579 Z38.2 E0.02746
G1 X-9.145 Y18.534 Z38.2 E0.00979
G1 X-8.586 Y18.429 Z38.2 E0.01093
G1 X-7.921 Y18.188 Z38.2 E0.01361
G1 X-7.921 Y16.683 Z38.2 E0.02895
M106 S255
M204 P1000 T1000
G1 X-7.664 Y16.37 Z38.2 F9000
M106 S255
G1 F1200
G1 X-8.703 Y16.352 Z38.2 E0.01999 F180.0
G1 X-9.298 Y16.361 Z38.2 E0.01144
G1 X-10.28 Y16.351 Z38.2 E0.0189
G1 X-11.336 Y16.351 Z38.2 E0.02032
G1 X-11.336 Y17.594 Z38.2 E0.023905
G1 X-11.336 Y18.836 Z38.2 E0.023905
G1 X-9.647 Y18.836 Z38.2 E0.0325
G1 X-9.109 Y18.788 Z38.2 E0.01038
G1 X-8.612 Y18.705 Z38.2 E0.00968
G1 X-8.103 Y18.548 Z38.2 E0.01027
G1 X-7.664 Y18.349 Z38.2 E0.00927
G1 X-7.664 Y16.43 Z38.2 E0.0369
M106 S255
G1 X-7.407 Y16.116 Z38.2 F9000
M106 S255
G1 F1200
G1 X-7.595 Y16.114 Z38.2 E0.00362 F180.0
G1 X-8.703 Y16.095 Z38.2 E0.02131
G1 X-9.302 Y16.104 Z38.2 E0.01153
G1 X-10.28 Y16.094 Z38.2 E0.01881
G1 X-11.364 Y16.093 Z38.2 E0.02087
G1 X-11.593 Y16.103 Z38.2 E0.0044
G1 X-11.593 Y17.598 Z38.2 E0.028765
G1 X-11.593 Y19.093 Z38.2 E0.028765
G1 X-9.642 Y19.093 Z38.2 E0.03754
G1 X-9.122 Y19.05 Z38.2 E0.01004
G1 X-8.539 Y18.952 Z38.2 E0.01136
G1 X-8.056 Y18.809 Z38.2 E0.00969
G1 X-7.407 Y18.505 Z38.2 E0.01379
G1 X-7.407 Y17.34 Z38.2 E0.022405
G1 X-7.407 Y16.176 Z38.2 E0.022405
M106 S255
G1 X-7.15 Y15.861 Z38.2 F9000
;TYPE:External perimeter
M106 S255
G1 F1200
G1 X-7.591 Y15.857 Z38.2 E0.00848 F180.0
G1 X-8.702 Y15.838 Z38.2 E0.02139
G1 X-9.306 Y15.847 Z38.2 E0.01161
G1 X-10.28 Y15.837 Z38.2 E0.01874
G1 X-11.369 Y15.836 Z38.2 E0.02096
G1 X-11.85 Y15.855 Z38.2 E0.00926
G1 X-11.85 Y17.602 Z38.2 E0.033615
G1 X-11.85 Y19.35 Z38.2 E0.033615
G1 X-10.744 Y19.35 Z38.2 E0.02129
G1 X-9.637 Y19.35 Z38.2 E0.02129
G1 X-9.086 Y19.304 Z38.2 E0.01063
G1 X-8.589 Y19.235 Z38.2 E0.00966
G1 X-7.968 Y19.051 Z38.2 E0.01246
G1 X-7.15 Y18.662 Z38.2 E0.01742
G1 X-7.15 Y17.292 Z38.2 E0.026365
G1 X-7.15 Y15.921 Z38.2 E0.026365
M106 S255
;WIPE_START
G1 X-7.492 Y15.658 Z38.168 F9000
;WIPE_END
G1 E-0.63 F2100
;WIPE_START
G1 F7200
G1 X-7.588 Y15.657 Z38.168 E-0.0265
G1 X-7.732 Y15.655 Z38.167 E-0.04
;WIPE_END
G1 E-0.0035 F2100
G1  Z38.367 F9000
; acceleration to travel
M204 P1000 T1500
G1 X-6.267 Y14.641 Z37.913
G1 X-4.801 Y13.628 Z37.488
G1 X-3.336 Y12.614 Z37.301
G1 X-1.87 Y11.601 Z37.648
G1 X-0.405 Y10.588 Z37.89
G1 X1.061 Y9.574 Z37.965
; decel to extrusion
M204 P1000 T1000
G1 X2.135 Y8.832 Z38.366
G1 X3.209 Y8.089 Z38.4 F180.0
; end travel
M204 P1000 T1500
G1  Z38.2
G1 E0.7 F2100
;TYPE:Internal perimeter
M106 S255
G1 F1200
G1 X2.859 Y8.089 Z38.2 E0.00674 F180.0
G1 X2.849 Y8.681 Z38.2 E0.0114
G1 X2.854 Y8.801 Z38.2 E0.00231
G1 X4.807 Y8.803 Z38.2 E0.037575
G1 X6.76 Y8.805 Z38.2 E0.037575
G1 X6.76 Y8.447 Z38.2 E0.00689
G1 X6.76 Y8.089 Z38.2 E0.00689
G1 X5.014 Y8.089 Z38.2 E0.03358
G1 X3.269 Y8.089 Z38.2 E0.03358
M106 S255
M204 P1000 T1000
G1 X2.614 Y7.832 Z38.2 F9000
M106 S255
G1 F1200
G1 X2.596 Y8.436 Z38.2 E0.01164 F180.0
G1 X2.608 Y9.058 Z38.2 E0.01196
G1 X4.078 Y9.059 Z38.2 E0.028277
G1 X5.548 Y9.061 Z38.2 E0.028277
G1 X7.018 Y9.062 Z38.2 E0.028277
G1 X7.018 Y8.447 Z38.2 E0.01185
G1 X7.018 Y7.832 Z38.2 E0.01183
G1 X5.57 Y7.832 Z38.2 E0.027857
G1 X4.122 Y7.832 Z38.2 E0.027857
G1 X2.674 Y7.832 Z38.2 E0.027857
M106 S255
G1 X2.368 Y7.575 Z38.2 F9000
;TYPE:External perimeter
M106 S255
G1 F1200
G1 X2.344 Y8.104 Z38.2 E0.01019 F180.0
G1 X2.335 Y8.692 Z38.2 E0.01132
G1 X2.361 Y9.308 Z38.2 E0.01186
G1 X2.967 Y9.315 Z38.2 E0.01165
G1 X4.403 Y9.317 Z38.2 E0.027627
G1 X5.839 Y9.318 Z38.2 E0.027627
G1 X7.275 Y9.32 Z38.2 E0.027627
G1 X7.275 Y7.575 Z38.2 E0.03357
G1 X5.659 Y7.575 Z38.2 E0.03108
G1 X4.044 Y7.575 Z38.2 E0.03108
G1 X2.428 Y7.575 Z38.2 E0.03108
M106 S255
;WIPE_START
G1 X2.153 Y7.899 Z38.174 F9000
;WIPE_END
; acceleration to travel
M204 P1000 T1500
G1 X2.787 Y8.227 Z38.2
; decel to extrusion
M204 P1000 T1000
G1 X3.209 Y8.445 Z38.2
; end travel
;TYPE:Internal perimeter
;WIDTH:0.498438
M106 S255
G1 F1200
M204 P1000 T1500
G1 X4.806 Y8.446 Z38.2 E0.05443 F180.0
G1 X6.403 Y8.447 Z38.2 E0.05443
M106 S255
G1 E-0.63 F2100
;WIPE_START
G1 F7200
G1 X6.163 Y8.447 Z38.2 E-0.0665 F180.0
;WIPE_END
G1 E-0.0035 F2100
G1  Z38.4 F180.0
; acceleration to travel
G1 X4.439 Y8.006 Z38.4
G1 X2.714 Y7.565 Z38.4
G1 X0.99 Y7.124 Z37.926
G1 X-0.734 Y6.684 Z38.054 F2100.0
G1 X-2.458 Y6.243 Z37.965
G1 X-4.183 Y5.802 Z37.814
G1 X-5.907 Y5.361 Z37.663
G1 X-7.631 Y4.92 Z37.918
; decel to extrusion
M204 P1000 T1000
G1 X-9.317 Y4.489 Z38.374
G1 X-11.002 Y4.058 Z38.4 F180.0
; end travel
M204 P1000 T1500
G1  Z38.2
G1 E0.7 F2100
;TYPE:Solid infill
;WIDTH:0.279658
M106 S255
G1 F1200
G1 X-10.778 Y4.281 Z38.2 E0.00567
G1 X-10.684 Y4.539 Z38.2 E0.00492
G1 X-10.486 Y4.937 Z38.2 E0.00796
G1 X-10.891 Y4.532 Z38.2 E0.01027
G1 X-10.891 Y4.895 Z38.2 E0.00652
G1 X-10.129 Y5.658 Z38.2 E0.01934
G1 X-10.079 Y5.759 Z38.2 E0.00202
G1 X-9.509 Y6.641 Z38.2 E0.01884
G1 X-10.891 Y5.259 Z38.2 E0.03506
G1 X-10.891 Y5.623 Z38.2 E0.00652
G1 X-9.859 Y6.655 Z38.2 E0.02618
G1 X-8.827 Y7.687 Z38.2 E0.02618
G1 X-7.795 Y8.719 Z38.2 E0.02618
G1 X-7.928 Y8.949 Z38.2 E0.00477
G1 X-8.916 Y7.961 Z38.2 E0.02505
G1 X-9.903 Y6.974 Z38.2 E0.02505
G1 X-10.891 Y5.986 Z38.2 E0.02505
G1 X-10.891 Y6.35 Z38.2 E0.00652
G1 X-9.948 Y7.293 Z38.2 E0.023927
G1 X-9.004 Y8.237 Z38.2 E0.023927
G1 X-8.061 Y9.18 Z38.2 E0.023927
G1 X-8.089 Y9.228 Z38.2 E0.001
G1 X-8.092 Y9.512 Z38.2 E0.0051
G1 X-9.492 Y8.113 Z38.2 E0.0355
G1 X-10.891 Y6.713 Z38.2 E0.0355
G1 X-10.891 Y7.077 Z38.2 E0.00652
G1 X-9.493 Y8.475 Z38.2 E0.035455
G1 X-8.095 Y9.873 Z38.2 E0.035455
G1 X-8.098 Y10.233 Z38.2 E0.00646
G1 X-9.494 Y8.836 Z38.2 E0.03542
G1 X-10.891 Y7.44 Z38.2 E0.03542
G1 X-10.891 Y7.804 Z38.2 E0.00652
G1 X-9.497 Y9.198 Z38.2 E0.03537
G1 X-8.102 Y10.593 Z38.2 E0.03537
G1 X-8.105 Y10.954 Z38.2 E0.00647
G1 X-9.498 Y9.561 Z38.2 E0.03533
G1 X-10.891 Y8.167 Z38.2 E0.03533
G1 X-10.891 Y8.531 Z38.2 E0.00652
G1 X-9.554 Y9.868 Z38.2 E0.033915
G1 X-8.217 Y11.205 Z38.2 E0.033915
G1 X-8.583 Y11.203 Z38.2 E0.00656
G1 X-9.737 Y10.049 Z38.2 E0.02927
G1 X-10.891 Y8.895 Z38.2 E0.02927
G1 X-10.891 Y9.258 Z38.2 E0.00652
G1 X-9.92 Y10.23 Z38.2 E0.024635
G1 X-8.949 Y11.201 Z38.2 E0.024635
G1 X-9.314 Y11.199 Z38.2 E0.00656
G1 X-10.102 Y10.41 Z38.2 E0.019995
G1 X-10.891 Y9.622 Z38.2 E0.019995
G1 X-10.891 Y9.985 Z38.2 E0.00652
G1 X-9.68 Y11.196 Z38.2 E0.03072
G1 X-10.046 Y11.194 Z38.2 E0.00656
G1 X-10.891 Y10.349 Z38.2 E0.02144
G1 X-10.891 Y10.712 Z38.2 E0.00652
G1 X-10.412 Y11.192 Z38.2 E0.01216
G1 X-10.777 Y11.19 Z38.2 E0.00656
G1 X-11.002 Y10.965 Z38.2 E0.00569
M106 S255
G1 E-0.63 F2100
;WIPE_START
G1 F7200
G1 X-10.832 Y11.135 Z38.2 E-0.0665
;WIPE_END
G1 E-0.0035 F2100
G1  Z38.4 F9000
; acceleration to travel
G1 X-10.625 Y9.315 Z38.4
G1 X-10.418 Y7.494 Z38.4
G1 X-10.211 Y5.674 Z38.4
G1 X-10.004 Y3.854 Z38.4
G1 X-9.797 Y2.034 Z38.225
G1 X-9.59 Y0.213 Z38.068
G1 X-9.383 Y-1.607 Z38.06
G1 X-9.176 Y-3.427 Z38.15
G1 X-8.969 Y-5.247 Z38.385
G1 X-8.762 Y-7.068 Z38.4
G1 X-8.555 Y-8.888 Z38.4
; decel to extrusion
M204 P1000 T1000
G1 X-8.369 Y-10.519 Z38.4
G1 X-8.184 Y-12.149 Z38.4
G1 X-7.998 Y-13.78 Z38.4
; end travel
M204 P1000 T1500
G1  Z38.2
G1 E0.7 F2100
;WIDTH:0.280838
M106 S255
G1 F1200
G1 X-8.416 Y-14.198 Z38.2 E0.01065
G1 X-8.68 Y-14.204 Z38.2 E0.00474
G1 X-8.785 Y-14.204 Z38.2 E0.0019
G1 X-8.109 Y-13.527 Z38.2 E0.01722
G1 X-8.109 Y-13.164 Z38.2 E0.00655
G1 X-9.148 Y-14.203 Z38.2 E0.02647
G1 X-9.511 Y-14.202 Z38.2 E0.00654
G1 X-8.109 Y-12.8 Z38.2 E0.03571
G1 X-8.109 Y-12.437 Z38.2 E0.00655
G1 X-8.992 Y-13.32 Z38.2 E0.022475
G1 X-9.874 Y-14.202 Z38.2 E0.022475
G1 X-10.237 Y-14.201 Z38.2 E0.00654
G1 X-9.173 Y-13.137 Z38.2 E0.0271
G1 X-8.109 Y-12.073 Z38.2 E0.0271
G1 X-8.109 Y-11.71 Z38.2 E0.00655
G1 X-9.354 Y-12.956 Z38.2 E0.031725
G1 X-10.6 Y-14.201 Z38.2 E0.031725
G1 X-10.891 Y-14.2 Z38.2 E0.00524
G1 X-10.891 Y-14.128 Z38.2 E0.0013
G1 X-9.5 Y-12.737 Z38.2 E0.03543
G1 X-8.109 Y-11.346 Z38.2 E0.03543
G1 X-8.109 Y-10.982 Z38.2 E0.00655
G1 X-9.5 Y-12.374 Z38.2 E0.03543
G1 X-10.891 Y-13.765 Z38.2 E0.03543
G1 X-10.891 Y-13.401 Z38.2 E0.00655
G1 X-9.5 Y-12.01 Z38.2 E0.03543
G1 X-8.109 Y-10.619 Z38.2 E0.03543
G1 X-8.109 Y-10.255 Z38.2 E0.00655
G1 X-9.5 Y-11.646 Z38.2 E0.03543
G1 X-10.891 Y-13.038 Z38.2 E0.03543
G1 X-10.891 Y-12.674 Z38.2 E0.00655
G1 X-9.5 Y-11.283 Z38.2 E0.03543
G1 X-8.109 Y-9.892 Z38.2 E0.03543
G1 X-8.109 Y-9.528 Z38.2 E0.00655
G1 X-9.5 Y-10.919 Z38.2 E0.03543
G1 X-10.891 Y-12.31 Z38.2 E0.03543
G1 X-10.891 Y-11.947 Z38.2 E0.00655
G1 X-9.5 Y-10.556 Z38.2 E0.03543
G1 X-8.109 Y-9.165 Z38.2 E0.03543
G1 X-8.109 Y-8.801 Z38.2 E0.00655
G1 X-9.5 Y-10.192 Z38.2 E0.03543
G1 X-10.891 Y-11.583 Z38.2 E0.03543
G1 X-10.891 Y-11.22 Z38.2 E0.00655
G1 X-9.5 Y-9.829 Z38.2 E0.03543
G1 X-8.109 Y-8.438 Z38.2 E0.03543
G1 X-8.109 Y-8.296 Z38.2 E0.00255
G1 X-8.215 Y-8.181 Z38.2 E0.00283
G1 X-9.553 Y-9.518 Z38.2 E0.034075
G1 X-10.891 Y-10.856 Z38.2 E0.034075
G1 X-10.891 Y-10.493 Z38.2 E0.00655
G1 X-9.64 Y-9.242 Z38.2 E0.031855
G1 X-8.39 Y-7.991 Z38.2 E0.031855
G1 X-8.564 Y-7.802 Z38.2 E0.00463
G1 X-9.728 Y-8.965 Z38.2 E0.029635
G1 X-10.891 Y-10.129 Z38.2 E0.029635
G1 X-10.891 Y-9.766 Z38.2 E0.00655
G1 X-9.814 Y-8.69 Z38.2 E0.027415
G1 X-8.738 Y-7.613 Z38.2 E0.027415
G1 X-8.913 Y-7.424 Z38.2 E0.00463
G1 X-9.902 Y-8.413 Z38.2 E0.025195
G1 X-10.891 Y-9.402 Z38.2 E0.025195
G1 X-10.891 Y-9.038 Z38.2 E0.00654
G1 X-9.984 Y-8.131 Z38.2 E0.02309
G1 X-9.078 Y-7.225 Z38.2 E0.02309
G1 X-9.231 Y-7.015 Z38.2 E0.00469
G1 X-10.061 Y-7.845 Z38.2 E0.021145
G1 X-10.891 Y-8.675 Z38.2 E0.021145
G1 X-10.891 Y-8.311 Z38.2 E0.00655
G1 X-10.138 Y-7.558 Z38.2 E0.019195
G1 X-9.384 Y-6.804 Z38.2 E0.019195
G1 X-9.537 Y-6.593 Z38.2 E0.00469
G1 X-10.891 Y-7.948 Z38.2 E0.0345
G1 X-10.891 Y-7.584 Z38.2 E0.00655
G1 X-9.689 Y-6.382 Z38.2 E0.0306
G1 X-9.752 Y-6.296 Z38.2 E0.00193
G1 X-9.83 Y-6.159 Z38.2 E0.00283
G1 X-10.891 Y-7.221 Z38.2 E0.02704
G1 X-10.891 Y-6.857 Z38.2 E0.00655
G1 X-9.961 Y-5.927 Z38.2 E0.02369
G1 X-10.092 Y-5.694 Z38.2 E0.00481
G1 X-10.891 Y-6.493 Z38.2 E0.02035
G1 X-10.891 Y-6.13 Z38.2 E0.00655
G1 X-10.223 Y-5.462 Z38.2 E0.017
G1 X-10.355 Y-5.23 Z38.2 E0.00481
G1 X-10.891 Y-5.766 Z38.2 E0.01366
G1 X-10.891 Y-5.403 Z38.2 E0.00655
G1 X-10.475 Y-4.987 Z38.2 E0.01058
G1 X-10.585 Y-4.733 Z38.2 E0.00499
G1 X-10.891 Y-5.039 Z38.2 E0.0078
G1 X-10.891 Y-4.676 Z38.2 E0.00655
G1 X-10.694 Y-4.479 Z38.2 E0.00502
G1 X-10.803 Y-4.224 Z38.2 E0.00498
G1 X-11.002 Y-4.423 Z38.2 E0.00505
M106 S255
G1 E-0.63 F2100
;WIPE_START
G1 F7200
G1 X-10.832 Y-4.253 Z38.2 E-0.0665
;WIPE_END
G1 E-0.0035 F2100
G1  Z38.4 F9000
; acceleration to travel
G1 X-10.898 Y-2.387 Z38.4
G1 X-10.964 Y-0.522 Z38.4
G1 X-11.03 Y1.344 Z38.4
; decel to extrusion
M204 P1000 T1000
G1 X-11.079 Y2.712 Z38.4
; end travel
M204 P1000 T1500
G1  Z38.2
G1 E0.7 F2100
;TYPE:Internal perimeter
;WIDTH:0.299999
M106 S255
G1 F1200
G1 X-11.079 Y4.445 Z38.2 E0.033334 F180.0
G1 X-11.079 Y6.178 Z38.2 E0.033334
G1 X-11.079 Y7.91 Z38.2 E0.033334
G1 X-11.079 Y9.643 Z38.2 E0.033334
G1 X-11.079 Y11.376 Z38.2 E0.033334
G1 X-9.5 Y11.386 Z38.2 E0.030375
G1 X-7.921 Y11.395 Z38.2 E0.030375
G1 X-7.921 Y9.453 Z38.2 E0.03735
G1 X-7.901 Y9.265 Z38.2 E0.00364
G1 X-7.622 Y8.783 Z38.2 E0.01071
G1 X-7.425 Y8.655 Z38.2 E0.00453
G1 X-7.615 Y8.516 Z38.2 E0.00452
G1 X-8.468 Y7.662 Z38.2 E0.02321
G1 X-8.533 Y7.59 Z38.2 E0.00187
G1 X-9.247 Y6.702 Z38.2 E0.02192
G1 X-9.304 Y6.623 Z38.2 E0.00188
G1 X-9.917 Y5.663 Z38.2 E0.02191
G1 X-9.965 Y5.578 Z38.2 E0.00188
G1 X-10.471 Y4.557 Z38.2 E0.02191
G1 X-10.51 Y4.468 Z38.2 E0.00188
G1 X-10.903 Y3.399 Z38.2 E0.02192
G1 X-11.064 Y2.77 Z38.2 E0.01248
M106 S255
G1 E-0.63 F2100
;WIPE_START
G1 F7200
G1 X-11.004 Y3.003 Z38.2 E-0.0665 F180.0
;WIPE_END
G1 E-0.0035 F2100
G1  Z38.4 F180.0
; acceleration to travel
G1 X-9.705 Y4.365 Z38.4
G1 X-8.405 Y5.728 Z38.282
G1 X-7.106 Y7.09 Z38.244 F2100.0
; decel to extrusion
M204 P1000 T1000
G1 X-6.154 Y8.089 Z38.4 F180.0
; end travel
M204 P1000 T1500
G1  Z38.2
G1 E0.7 F2100
M106 S255
G1 F1200
G1 X-6.401 Y8.089 Z38.2 E0.00476 F180.0
G1 X-6.45 Y8.244 Z38.2 E0.00314
G1 X-6.657 Y8.384 Z38.2 E0.0048
M106 S255
;WIDTH:0.321633
M106 S255
G1 X-6.864 Y8.523 Z38.2 E0.00521
G1 X-7.015 Y8.529 Z38.2 E0.00315
G1 X-7.146 Y8.489 Z38.2 E0.00285
M106 S255
;WIDTH:0.301582
M106 S255
G1 X-7.276 Y8.45 Z38.2 E0.00264
G1 X-7.433 Y8.334 Z38.2 E0.00377
G1 X-8.286 Y7.481 Z38.2 E0.02336
G1 X-8.333 Y7.429 Z38.2 E0.00135
G1 X-9.046 Y6.541 Z38.2 E0.02205
G1 X-9.087 Y6.484 Z38.2 E0.00134
G1 X-9.701 Y5.524 Z38.2 E0.02206
G1 X-9.735 Y5.464 Z38.2 E0.00134
G1 X-10.241 Y4.443 Z38.2 E0.02206
G1 X-10.268 Y4.379 Z38.2 E0.00134
G1 X-10.661 Y3.31 Z38.2 E0.02206
G1 X-10.682 Y3.243 Z38.2 E0.00134
G1 X-10.831 Y2.694 Z38.2 E0.01103
M106 S255
;WIDTH:0.349305
M106 S255
G1 X-10.981 Y2.144 Z38.2 E0.01307
G1 X-11.011 Y1.89 Z38.2 E0.00587
M106 S255
;WIDTH:0.325505
M106 S255
G1 X-11.042 Y1.635 Z38.2 E0.00541
G1 X-11.06 Y1.593 Z38.2 E0.0
M106 S255
;WIDTH:0.354063
M106 S255
G1 X-11.079 Y1.551 Z38.2 E0.00108
M106 S255
;WIDTH:0.382621
M106 S255
G1 X-11.097 Y1.509 Z38.2 E0.00117
M106 S255
;WIDTH:0.411178
M106 S255
G1 X-11.116 Y1.467 Z38.2 E0.00127
M106 S255
;WIDTH:0.439736
M106 S255
G1 X-11.135 Y1.424 Z38.2 E0.00137
M106 S255
;WIDTH:0.468294
M106 S255
G1 X-11.153 Y1.382 Z38.2 E0.00147
M106 S255
;WIDTH:0.496851
M106 S255
G1 X-11.172 Y1.34 Z38.2 E0.00157
M106 S255
;WIDTH:0.525409
M106 S255
G1 X-11.19 Y1.298 Z38.2 E0.00166
M106 S255
