; generated by SuperSlicer 2.5.59.13 on 2025-11-14 at 08:24:08 UTC

; 

; external perimeters extrusion width = 0.30mm
; perimeters extrusion width = 0.30mm
; infill extrusion width = 0.30mm
; solid infill extrusion width = 0.30mm
; top infill extrusion width = 0.30mm


M106 S255
M140 S50 ; set bed temperature
G10 P0 R220 ; sets the standby temperature
G10 P0 S220 ; set temperature
;TYPE:Custom
G1 E0.7 F1800
G21 ; set units to millimeters
G90 ; use absolute coordinates
M83 ; use relative distances for extrusion
; FILAMENT_START_GCODE
G10 P0 S220 ; set temperature
M116 ; wait for temperature to be reached
M190 S50 ; set bed temperature and wait for it to be reached
;LAYER_CHANGE
;Z:45.8
;HEIGHT:45.799999
; BEFORE_LAYER_CHANGE
;45.8
G92 E0

G1 E-0.7 F2100
G1  Z6.2 F9000
G1  Z42.223
; AFTER_LAYER_CHANGE
;45.8
G1  Z42.423
M204 P1000 T1000
G1 X0.736 Y1.822 Z43.082
G1 X1.473 Y3.645 Z43.754
G1 X2.209 Y5.468 Z44.424
G1 X2.945 Y7.29 Z45.093
G1 X3.682 Y9.112 Z45.759
G1 X4.418 Y10.935 Z46.0
G1  Z45.8
G1 E0.7 F2100
;TYPE:Solid infill
;WIDTH:0.28802
;HEIGHT:0.2
M106 S255
G1 F1200
G1 X4.309 Y10.827 Z45.8 E0.00284
G1 X4.116 Y10.847 Z45.8 E0.00359
G1 X4.003 Y10.884 Z45.8 E0.0022
G1 X4.152 Y11.033 Z45.8 E0.00391
G1 X3.922 Y11.166 Z45.8 E0.00492
G1 X3.727 Y10.972 Z45.8 E0.00508
G1 X3.452 Y11.06 Z45.8 E0.00534
G1 X3.691 Y11.3 Z45.8 E0.00626
G1 X3.461 Y11.433 Z45.8 E0.00491
G1 X3.177 Y11.148 Z45.8 E0.00743
G1 X2.901 Y11.237 Z45.8 E0.00534
G1 X3.231 Y11.566 Z45.8 E0.00859
G1 X3.0 Y11.699 Z45.8 E0.00492
G1 X2.602 Y11.301 Z45.8 E0.01039
G1 X2.298 Y11.361 Z45.8 E0.00572
G1 X2.77 Y11.832 Z45.8 E0.0123
G1 X2.539 Y11.965 Z45.8 E0.00492
G1 X1.995 Y11.421 Z45.8 E0.01421
G1 X1.691 Y11.481 Z45.8 E0.00572
G1 X2.309 Y12.098 Z45.8 E0.01613
G1 X2.078 Y12.231 Z45.8 E0.00492
G1 X1.362 Y11.515 Z45.8 E0.0187
G1 X1.026 Y11.543 Z45.8 E0.00623
G1 X1.848 Y12.364 Z45.8 E0.02145
G1 X1.617 Y12.497 Z45.8 E0.00492
G1 X0.69 Y11.57 Z45.8 E0.02421
G1 X0.354 Y11.598 Z45.8 E0.00623
G1 X1.387 Y12.63 Z45.8 E0.02697
G1 X1.156 Y12.763 Z45.8 E0.00492
G1 X-0.011 Y11.596 Z45.8 E0.03049
G1 X-0.386 Y11.584 Z45.8 E0.00693
G1 X0.926 Y12.896 Z45.8 E0.03428
G1 X0.695 Y13.029 Z45.8 E0.00491
G1 X-0.033 Y12.301 Z45.8 E0.019025
G1 X-0.762 Y11.573 Z45.8 E0.019025
G1 X-0.986 Y11.566 Z45.8 E0.00416
G1 X-1.156 Y11.542 Z45.8 E0.00316
G1 X-0.345 Y12.352 Z45.8 E0.021165
G1 X0.465 Y13.163 Z45.8 E0.021165
G1 X0.234 Y13.296 Z45.8 E0.00491
G1 X-0.672 Y12.39 Z45.8 E0.023675
G1 X-1.579 Y11.483 Z45.8 E0.023675
G1 X-2.001 Y11.424 Z45.8 E0.00789
G1 X-0.998 Y12.426 Z45.8 E0.02619
G1 X0.004 Y13.429 Z45.8 E0.02619
G1 X-0.227 Y13.562 Z45.8 E0.00491
G1 X-1.341 Y12.448 Z45.8 E0.02908
G1 X-2.454 Y11.335 Z45.8 E0.02908
G1 X-2.94 Y11.212 Z45.8 E0.00927
G1 X-1.698 Y12.454 Z45.8 E0.032425
G1 X-0.457 Y13.695 Z45.8 E0.032425
G1 X-0.688 Y13.828 Z45.8 E0.00492
G1 X-2.057 Y12.458 Z45.8 E0.035765
G1 X-3.426 Y11.089 Z45.8 E0.035765
G1 X-3.448 Y11.084 Z45.8 E0.0
G1 X-3.997 Y10.883 Z45.8 E0.0108
G1 X-2.971 Y11.909 Z45.8 E0.026803
G1 X-1.944 Y12.935 Z45.8 E0.026803
G1 X-0.918 Y13.961 Z45.8 E0.026803
G1 X-1.149 Y14.094 Z45.8 E0.00491
G1 X-2.293 Y12.95 Z45.8 E0.029873
G1 X-3.436 Y11.807 Z45.8 E0.029873
G1 X-4.58 Y10.663 Z45.8 E0.029873
G1 X-5.292 Y10.314 Z45.8 E0.01465
G1 X-3.988 Y11.618 Z45.8 E0.03407
G1 X-2.683 Y12.923 Z45.8 E0.03407
G1 X-1.379 Y14.227 Z45.8 E0.03407
G1 X-1.61 Y14.36 Z45.8 E0.00491
G1 X-2.831 Y13.139 Z45.8 E0.031887
G1 X-4.052 Y11.918 Z45.8 E0.031887
G1 X-5.272 Y10.698 Z45.8 E0.031887
G1 X-6.493 Y9.477 Z45.8 E0.031887
M106 S255
G1 E-0.63 F2100
;WIPE_START
G1 F7200
G1 X-6.323 Y9.647 Z45.8 E-0.0665
;WIPE_END
G1 E-0.0035 F2100
G1  Z46.0 F9000
; acceleration to travel
M204 P1000 T1500
G1 X-7.495 Y8.183 Z46.0
G1 X-8.666 Y6.72 Z46.0
G1 X-9.838 Y5.256 Z46.0
; decel to extrusion
M204 P1000 T1000
G1 X-10.697 Y4.183 Z46.0
; end travel
M204 P1000 T1500
G1  Z45.8
G1 E0.7 F2100
M106 S255
G1 F1200
G1 X-10.891 Y3.988 Z45.8 E0.00508
G1 X-10.891 Y4.352 Z45.8 E0.00671
G1 X-10.664 Y4.579 Z45.8 E0.00594
G1 X-10.314 Y5.292 Z45.8 E0.01467
G1 X-10.891 Y4.715 Z45.8 E0.01507
G1 X-10.891 Y5.079 Z45.8 E0.00672
G1 X-9.477 Y6.493 Z45.8 E0.03694
M106 S255
; acceleration to travel
G1 X-10.392 Y5.796 Z45.8 F9000
; decel to extrusion
M204 P1000 T1000
G1 X-11.002 Y5.332 Z45.8
; end travel
M106 S255
G1 F1200
M204 P1000 T1500
G1 X-9.693 Y6.641 Z45.8 E0.034187
G1 X-8.384 Y7.949 Z45.8 E0.034187
G1 X-7.075 Y9.258 Z45.8 E0.034187
G1 X-5.767 Y10.567 Z45.8 E0.034187
G1 X-4.458 Y11.876 Z45.8 E0.034187
G1 X-3.149 Y13.184 Z45.8 E0.034187
G1 X-1.84 Y14.493 Z45.8 E0.034187
G1 X-2.071 Y14.626 Z45.8 E0.00491
G1 X-3.331 Y13.366 Z45.8 E0.032914
G1 X-4.591 Y12.106 Z45.8 E0.032914
G1 X-5.851 Y10.846 Z45.8 E0.032914
G1 X-7.111 Y9.586 Z45.8 E0.032914
G1 X-8.371 Y8.326 Z45.8 E0.032914
G1 X-9.631 Y7.066 Z45.8 E0.032914
G1 X-10.891 Y5.806 Z45.8 E0.032914
G1 X-10.891 Y6.17 Z45.8 E0.00671
G1 X-9.664 Y7.397 Z45.8 E0.032054
G1 X-8.437 Y8.624 Z45.8 E0.032054
G1 X-7.21 Y9.851 Z45.8 E0.032054
G1 X-5.982 Y11.078 Z45.8 E0.032054
G1 X-4.755 Y12.305 Z45.8 E0.032054
G1 X-3.528 Y13.532 Z45.8 E0.032054
G1 X-2.301 Y14.759 Z45.8 E0.032054
G1 X-2.532 Y14.893 Z45.8 E0.00491
G1 X-3.925 Y13.5 Z45.8 E0.036393
G1 X-5.318 Y12.106 Z45.8 E0.036393
G1 X-6.712 Y10.713 Z45.8 E0.036393
G1 X-8.105 Y9.32 Z45.8 E0.036393
G1 X-9.498 Y7.926 Z45.8 E0.036393
G1 X-10.891 Y6.533 Z45.8 E0.036393
G1 X-10.891 Y6.897 Z45.8 E0.00672
G1 X-9.536 Y8.252 Z45.8 E0.035388
G1 X-8.181 Y9.607 Z45.8 E0.035388
G1 X-6.826 Y10.962 Z45.8 E0.035388
G1 X-5.472 Y12.316 Z45.8 E0.035388
G1 X-4.117 Y13.671 Z45.8 E0.035388
G1 X-2.762 Y15.026 Z45.8 E0.035388
G1 X-2.993 Y15.159 Z45.8 E0.00492
G1 X-4.309 Y13.843 Z45.8 E0.034385
G1 X-5.626 Y12.526 Z45.8 E0.034385
G1 X-6.942 Y11.21 Z45.8 E0.034385
G1 X-8.258 Y9.893 Z45.8 E0.034385
G1 X-9.575 Y8.576 Z45.8 E0.034385
G1 X-10.891 Y7.26 Z45.8 E0.034385
G1 X-10.891 Y7.624 Z45.8 E0.00671
G1 X-9.613 Y8.902 Z45.8 E0.033383
G1 X-8.335 Y10.18 Z45.8 E0.033383
G1 X-7.057 Y11.458 Z45.8 E0.033383
G1 X-5.779 Y12.736 Z45.8 E0.033383
G1 X-4.501 Y14.014 Z45.8 E0.033383
G1 X-3.223 Y15.292 Z45.8 E0.033383
G1 X-3.454 Y15.425 Z45.8 E0.00491
G1 X-4.694 Y14.185 Z45.8 E0.03238
G1 X-5.933 Y12.946 Z45.8 E0.03238
G1 X-7.172 Y11.706 Z45.8 E0.03238
G1 X-8.412 Y10.466 Z45.8 E0.03238
G1 X-9.651 Y9.227 Z45.8 E0.03238
G1 X-10.891 Y7.987 Z45.8 E0.03238
G1 X-10.891 Y8.351 Z45.8 E0.00671
G1 X-9.69 Y9.552 Z45.8 E0.031375
G1 X-8.489 Y10.753 Z45.8 E0.031375
G1 X-7.288 Y11.954 Z45.8 E0.031375
G1 X-6.086 Y13.156 Z45.8 E0.031375
G1 X-4.885 Y14.357 Z45.8 E0.031375
G1 X-3.684 Y15.558 Z45.8 E0.031375
G1 X-3.915 Y15.691 Z45.8 E0.00492
G1 X-5.31 Y14.296 Z45.8 E0.036446
G1 X-6.705 Y12.901 Z45.8 E0.036446
G1 X-8.101 Y11.505 Z45.8 E0.036446
G1 X-9.496 Y10.11 Z45.8 E0.036446
G1 X-10.891 Y8.715 Z45.8 E0.036446
G1 X-10.891 Y9.078 Z45.8 E0.00672
G1 X-9.542 Y10.427 Z45.8 E0.035242
G1 X-8.193 Y11.776 Z45.8 E0.035242
G1 X-6.843 Y13.126 Z45.8 E0.035242
G1 X-5.494 Y14.475 Z45.8 E0.035242
G1 X-4.145 Y15.824 Z45.8 E0.035242
G1 X-4.376 Y15.957 Z45.8 E0.00491
G1 X-5.679 Y14.654 Z45.8 E0.034038
G1 X-6.982 Y13.351 Z45.8 E0.034038
G1 X-8.285 Y12.048 Z45.8 E0.034038
G1 X-9.588 Y10.745 Z45.8 E0.034038
G1 X-10.891 Y9.442 Z45.8 E0.034038
G1 X-10.891 Y9.805 Z45.8 E0.00672
G1 X-9.634 Y11.062 Z45.8 E0.032834
G1 X-8.377 Y12.319 Z45.8 E0.032834
G1 X-7.12 Y13.576 Z45.8 E0.032834
G1 X-5.863 Y14.833 Z45.8 E0.032834
G1 X-4.606 Y16.09 Z45.8 E0.032834
G1 X-4.837 Y16.223 Z45.8 E0.00491
G1 X-6.048 Y15.012 Z45.8 E0.03163
G1 X-7.259 Y13.801 Z45.8 E0.03163
G1 X-8.469 Y12.591 Z45.8 E0.03163
G1 X-9.68 Y11.38 Z45.8 E0.03163
G1 X-10.891 Y10.169 Z45.8 E0.03163
G1 X-10.891 Y10.532 Z45.8 E0.00672
G1 X-9.726 Y11.697 Z45.8 E0.030424
G1 X-8.561 Y12.862 Z45.8 E0.030424
G1 X-7.397 Y14.026 Z45.8 E0.030424
G1 X-6.232 Y15.191 Z45.8 E0.030424
G1 X-5.067 Y16.356 Z45.8 E0.030424
G1 X-5.298 Y16.489 Z45.8 E0.00492
G1 X-6.696 Y15.091 Z45.8 E0.036527
G1 X-8.094 Y13.692 Z45.8 E0.036527
G1 X-9.493 Y12.294 Z45.8 E0.036527
G1 X-10.891 Y10.896 Z45.8 E0.036527
G1 X-10.891 Y11.259 Z45.8 E0.00671
G1 X-9.55 Y12.6 Z45.8 E0.035022
G1 X-8.21 Y13.94 Z45.8 E0.035022
G1 X-6.869 Y15.281 Z45.8 E0.035022
G1 X-5.528 Y16.622 Z45.8 E0.035022
G1 X-5.759 Y16.756 Z45.8 E0.00492
G1 X-7.042 Y15.473 Z45.8 E0.033515
G1 X-8.325 Y14.189 Z45.8 E0.033515
G1 X-9.608 Y12.906 Z45.8 E0.033515
G1 X-10.891 Y11.623 Z45.8 E0.033515
G1 X-10.891 Y11.987 Z45.8 E0.00672
G1 X-9.666 Y13.212 Z45.8 E0.03201
G1 X-8.44 Y14.438 Z45.8 E0.03201
G1 X-7.214 Y15.664 Z45.8 E0.03201
G1 X-5.989 Y16.889 Z45.8 E0.03201
G1 X-6.22 Y17.022 Z45.8 E0.00492
G1 X-7.388 Y15.854 Z45.8 E0.030505
G1 X-8.556 Y14.686 Z45.8 E0.030505
G1 X-9.723 Y13.518 Z45.8 E0.030505
G1 X-10.891 Y12.35 Z45.8 E0.030505
G1 X-10.891 Y12.714 Z45.8 E0.00672
G1 X-9.781 Y13.824 Z45.8 E0.029
G1 X-8.67 Y14.934 Z45.8 E0.029
G1 X-7.56 Y16.045 Z45.8 E0.029
G1 X-6.45 Y17.155 Z45.8 E0.029
G1 X-6.681 Y17.288 Z45.8 E0.00492
G1 X-8.084 Y15.884 Z45.8 E0.03666
G1 X-9.488 Y14.481 Z45.8 E0.03666
G1 X-10.891 Y13.077 Z45.8 E0.03666
G1 X-10.891 Y13.441 Z45.8 E0.00672
G1 X-9.564 Y14.768 Z45.8 E0.034653
G1 X-8.238 Y16.094 Z45.8 E0.034653
G1 X-6.911 Y17.421 Z45.8 E0.034653
G1 X-7.142 Y17.554 Z45.8 E0.00492
G1 X-8.392 Y16.304 Z45.8 E0.032647
G1 X-9.641 Y15.054 Z45.8 E0.032647
G1 X-10.891 Y13.804 Z45.8 E0.032647
G1 X-10.891 Y14.168 Z45.8 E0.00671
G1 X-9.718 Y15.341 Z45.8 E0.03064
G1 X-8.545 Y16.514 Z45.8 E0.03064
G1 X-7.372 Y17.687 Z45.8 E0.03064
G1 X-7.603 Y17.82 Z45.8 E0.00492
G1 X-8.699 Y16.724 Z45.8 E0.028633
G1 X-9.795 Y15.628 Z45.8 E0.028633
G1 X-10.891 Y14.532 Z45.8 E0.028633
G1 X-10.891 Y14.895 Z45.8 E0.00672
G1 X-9.875 Y15.911 Z45.8 E0.026533
G1 X-8.86 Y16.926 Z45.8 E0.026533
G1 X-7.844 Y17.942 Z45.8 E0.026533
G1 X-8.088 Y18.062 Z45.8 E0.00502
G1 X-9.49 Y16.66 Z45.8 E0.036605
G1 X-10.891 Y15.259 Z45.8 E0.036605
G1 X-10.891 Y15.622 Z45.8 E0.00672
G1 X-9.622 Y16.892 Z45.8 E0.03316
G1 X-8.352 Y18.161 Z45.8 E0.03316
G1 X-8.627 Y18.25 Z45.8 E0.00533
G1 X-9.759 Y17.118 Z45.8 E0.029575
G1 X-10.891 Y15.986 Z45.8 E0.029575
G1 X-10.891 Y16.349 Z45.8 E0.00671
G1 X-9.91 Y17.33 Z45.8 E0.025635
G1 X-8.928 Y18.312 Z45.8 E0.025635
G1 X-9.24 Y18.365 Z45.8 E0.00583
G1 X-10.066 Y17.539 Z45.8 E0.02157
G1 X-10.891 Y16.713 Z45.8 E0.02157
G1 X-10.891 Y17.077 Z45.8 E0.00672
G1 X-9.598 Y18.37 Z45.8 E0.03378
G1 X-9.956 Y18.375 Z45.8 E0.00662
G1 X-10.891 Y17.44 Z45.8 E0.02441
G1 X-10.891 Y17.804 Z45.8 E0.00672
G1 X-10.315 Y18.38 Z45.8 E0.01506
G1 X-10.673 Y18.385 Z45.8 E0.00662
G1 X-11.002 Y18.057 Z45.8 E0.00858
M106 S255
G1 E-0.63 F2100
;WIPE_START
G1 F7200
G1 X-10.832 Y18.226 Z45.8 E-0.0665
;WIPE_END
G1 E-0.0035 F2100
G1  Z46.0 F9000
; acceleration to travel
G1 X-9.583 Y16.745 Z46.0
G1 X-8.333 Y15.264 Z46.0
G1 X-7.084 Y13.783 Z46.0
G1 X-5.834 Y12.302 Z46.0
G1 X-4.585 Y10.821 Z46.0
G1 X-3.335 Y9.34 Z45.799
G1 X-2.086 Y7.859 Z45.193
G1 X-0.836 Y6.378 Z44.612
G1 X0.413 Y4.897 Z44.079
G1 X1.663 Y3.416 Z43.709
G1 X2.912 Y1.935 Z43.564
G1 X4.162 Y0.454 Z43.345
G1 X5.411 Y-1.026 Z43.669
G1 X6.66 Y-2.507 Z44.257
G1 X7.91 Y-3.988 Z44.775
G1 X9.159 Y-5.469 Z45.112
G1 X10.409 Y-6.95 Z45.338
G1 X11.658 Y-8.431 Z45.563
G1 X12.908 Y-9.912 Z45.786
G1 X14.157 Y-11.393 Z46.0
G1 X15.407 Y-12.874 Z46.0
G1 X16.656 Y-14.355 Z46.0
G1 X17.906 Y-15.836 Z46.0
G1 X19.155 Y-17.317 Z46.0
; decel to extrusion
M204 P1000 T1000
G1 X20.376 Y-18.764 Z46.0
G1 X21.597 Y-20.212 Z46.0
G1 X22.818 Y-21.66 Z46.0
G1 X24.04 Y-23.107 Z46.0
G1 X25.261 Y-24.554 Z46.0
G1 X26.482 Y-26.002 Z46.0
; end travel
M204 P1000 T1500
G1  Z45.8
G1 E0.7 F2100
;WIDTH:0.295742
M106 S255
G1 F1200
G1 X26.891 Y-25.593 Z45.8 E0.01097
G1 X26.891 Y-25.229 Z45.8 E0.0069
G1 X26.229 Y-25.891 Z45.8 E0.01776
G1 X25.865 Y-25.891 Z45.8 E0.0069
G1 X26.891 Y-24.865 Z45.8 E0.02751
G1 X26.891 Y-24.502 Z45.8 E0.00689
G1 X25.502 Y-25.891 Z45.8 E0.03727
G1 X25.138 Y-25.891 Z45.8 E0.00689
G1 X26.014 Y-25.014 Z45.8 E0.02351
G1 X26.891 Y-24.138 Z45.8 E0.02351
G1 X26.891 Y-23.775 Z45.8 E0.00689
G1 X25.833 Y-24.833 Z45.8 E0.028385
G1 X24.775 Y-25.891 Z45.8 E0.028385
G1 X24.411 Y-25.891 Z45.8 E0.00689
G1 X25.651 Y-24.651 Z45.8 E0.03326
G1 X26.891 Y-23.411 Z45.8 E0.03326
G1 X26.891 Y-23.048 Z45.8 E0.0069
G1 X25.943 Y-23.996 Z45.8 E0.02542
G1 X24.996 Y-24.943 Z45.8 E0.02542
G1 X24.048 Y-25.891 Z45.8 E0.02542
G1 X23.684 Y-25.891 Z45.8 E0.0069
G1 X24.753 Y-24.822 Z45.8 E0.028673
G1 X25.822 Y-23.753 Z45.8 E0.028673
G1 X26.891 Y-22.684 Z45.8 E0.028673
G1 X26.891 Y-22.32 Z45.8 E0.00689
G1 X25.701 Y-23.51 Z45.8 E0.031927
G1 X24.51 Y-24.701 Z45.8 E0.031927
G1 X23.32 Y-25.891 Z45.8 E0.031927
G1 X22.957 Y-25.891 Z45.8 E0.00689
G1 X24.268 Y-24.58 Z45.8 E0.035173
G1 X25.58 Y-23.268 Z45.8 E0.035173
G1 X26.891 Y-21.957 Z45.8 E0.035173
G1 X26.891 Y-21.593 Z45.8 E0.0069
G1 X25.816 Y-22.668 Z45.8 E0.028817
G1 X24.742 Y-23.742 Z45.8 E0.028817
G1 X23.668 Y-24.816 Z45.8 E0.028817
G1 X22.593 Y-25.891 Z45.8 E0.028817
G1 X22.23 Y-25.891 Z45.8 E0.0069
G1 X23.395 Y-24.726 Z45.8 E0.031255
G1 X24.56 Y-23.56 Z45.8 E0.031255
G1 X25.726 Y-22.395 Z45.8 E0.031255
G1 X26.891 Y-21.23 Z45.8 E0.031255
G1 X26.891 Y-20.866 Z45.8 E0.0069
G1 X25.635 Y-22.122 Z45.8 E0.033693
G1 X24.378 Y-23.378 Z45.8 E0.033693
G1 X23.122 Y-24.635 Z45.8 E0.033693
G1 X21.866 Y-25.891 Z45.8 E0.033693
G1 X21.503 Y-25.891 Z45.8 E0.0069
G1 X22.85 Y-24.544 Z45.8 E0.036132
G1 X24.197 Y-23.197 Z45.8 E0.036132
G1 X25.544 Y-21.85 Z45.8 E0.036132
G1 X26.891 Y-20.503 Z45.8 E0.036132
G1 X26.891 Y-20.139 Z45.8 E0.00689
G1 X25.741 Y-21.289 Z45.8 E0.030856
G1 X24.59 Y-22.44 Z45.8 E0.030856
G1 X23.44 Y-23.59 Z45.8 E0.030856
G1 X22.289 Y-24.741 Z45.8 E0.030856
G1 X21.139 Y-25.891 Z45.8 E0.030856
G1 X20.775 Y-25.891 Z45.8 E0.0069
G1 X21.977 Y-24.689 Z45.8 E0.032232
G1 X23.179 Y-23.487 Z45.8 E0.032232
G1 X24.38 Y-22.286 Z45.8 E0.032232
G1 X25.582 Y-21.084 Z45.8 E0.032232
G1 X26.784 Y-19.882 Z45.8 E0.032232
G1 X26.554 Y-19.749 Z45.8 E0.00505
G1 X25.326 Y-20.977 Z45.8 E0.032946
G1 X24.097 Y-22.206 Z45.8 E0.032946
G1 X22.869 Y-23.434 Z45.8 E0.032946
G1 X21.64 Y-24.663 Z45.8 E0.032946
G1 X20.412 Y-25.891 Z45.8 E0.032946
G1 X20.048 Y-25.891 Z45.8 E0.0069
G1 X21.303 Y-24.636 Z45.8 E0.03366
G1 X22.558 Y-23.381 Z45.8 E0.03366
G1 X23.813 Y-22.126 Z45.8 E0.03366
G1 X25.068 Y-20.871 Z45.8 E0.03366
G1 X26.323 Y-19.616 Z45.8 E0.03366
G1 X26.093 Y-19.483 Z45.8 E0.00505
G1 X24.811 Y-20.765 Z45.8 E0.034374
G1 X23.53 Y-22.046 Z45.8 E0.034374
G1 X22.248 Y-23.328 Z45.8 E0.034374
G1 X20.967 Y-24.609 Z45.8 E0.034374
G1 X19.685 Y-25.891 Z45.8 E0.034374
G1 X19.321 Y-25.891 Z45.8 E0.00689
G1 X20.629 Y-24.583 Z45.8 E0.035088
G1 X21.937 Y-23.275 Z45.8 E0.035088
G1 X23.246 Y-21.966 Z45.8 E0.035088
G1 X24.554 Y-20.658 Z45.8 E0.035088
G1 X25.862 Y-19.35 Z45.8 E0.035088
G1 X25.632 Y-19.217 Z45.8 E0.00505
G1 X24.297 Y-20.552 Z45.8 E0.035802
G1 X22.962 Y-21.887 Z45.8 E0.035802
G1 X21.628 Y-23.221 Z45.8 E0.035802
G1 X20.293 Y-24.556 Z45.8 E0.035802
G1 X18.958 Y-25.891 Z45.8 E0.035802
G1 X18.594 Y-25.891 Z45.8 E0.0069
G1 X19.955 Y-24.53 Z45.8 E0.036516
G1 X21.317 Y-23.168 Z45.8 E0.036516
G1 X22.678 Y-21.807 Z45.8 E0.036516
G1 X24.04 Y-20.445 Z45.8 E0.036516
G1 X25.401 Y-19.084 Z45.8 E0.036516
G1 X25.171 Y-18.951 Z45.8 E0.00504
G1 X23.783 Y-20.339 Z45.8 E0.03723
G1 X22.395 Y-21.727 Z45.8 E0.03723
G1 X21.007 Y-23.115 Z45.8 E0.03723
G1 X19.619 Y-24.503 Z45.8 E0.03723
G1 X18.231 Y-25.891 Z45.8 E0.03723
G1 X17.867 Y-25.891 Z45.8 E0.0069
G1 X19.046 Y-24.712 Z45.8 E0.03162
G1 X20.225 Y-23.533 Z45.8 E0.03162
G1 X21.404 Y-22.354 Z45.8 E0.03162
G1 X22.582 Y-21.176 Z45.8 E0.03162
G1 X23.761 Y-19.997 Z45.8 E0.03162
G1 X24.94 Y-18.818 Z45.8 E0.03162
G1 X24.71 Y-18.685 Z45.8 E0.00504
G1 X23.509 Y-19.886 Z45.8 E0.032215
G1 X22.308 Y-21.087 Z45.8 E0.032215
G1 X21.106 Y-22.288 Z45.8 E0.032215
G1 X19.905 Y-23.489 Z45.8 E0.032215
G1 X18.704 Y-24.69 Z45.8 E0.032215
G1 X17.503 Y-25.891 Z45.8 E0.032215
G1 X17.14 Y-25.891 Z45.8 E0.0069
G1 X18.363 Y-24.668 Z45.8 E0.032808
G1 X19.586 Y-23.445 Z45.8 E0.032808
G1 X20.81 Y-22.222 Z45.8 E0.032808
G1 X22.033 Y-20.998 Z45.8 E0.032808
G1 X23.256 Y-19.775 Z45.8 E0.032808
G1 X24.479 Y-18.552 Z45.8 E0.032808
G1 X24.249 Y-18.419 Z45.8 E0.00505
