; generated by SuperSlicer 2.5.59.13 on 2025-11-06 at 06:10:33 UTC

; 

; external perimeters extrusion width = 0.30mm
; perimeters extrusion width = 0.30mm
; infill extrusion width = 0.30mm
; solid infill extrusion width = 0.30mm
; top infill extrusion width = 0.30mm


M106 S255
M140 S50 ; set bed temperature
G10 P0 R220 ; sets the standby temperature
G10 P0 S220 ; set temperature
;TYPE:Custom
G1 E0.7 F1800
G21 ; set units to millimeters
G90 ; use absolute coordinates
M83 ; use relative distances for extrusion
; FILAMENT_START_GCODE
G10 P0 S220 ; set temperature
M116 ; wait for temperature to be reached
M190 S50 ; set bed temperature and wait for it to be reached
;LAYER_CHANGE
;Z:20.2
;HEIGHT:20.200001
; BEFORE_LAYER_CHANGE
;20.2
G92 E0

G1 E-0.7 F2100
G1  Z6.2 F9000
G1  Z16.623
; AFTER_LAYER_CHANGE
;20.2
G1  Z16.823
M204 P1000 T1000
G1 X0.74 Y-1.788 Z17.47
G1 X1.481 Y-3.576 Z18.131
G1 X2.221 Y-5.364 Z18.792
G1 X2.961 Y-7.153 Z19.453
G1 X3.702 Y-8.941 Z20.114
G1 X4.442 Y-10.729 Z20.4
G1  Z20.2
G1 E0.7 F2100
;TYPE:Solid infill
;WIDTH:0.287388
;HEIGHT:0.2
M106 S255
G1 F1200
G1 X4.118 Y-11.053 Z20.2 E0.00846
G1 X3.257 Y-11.55 Z20.2 E0.0183
G1 X3.87 Y-10.938 Z20.2 E0.01597
G1 X3.326 Y-11.118 Z20.2 E0.01056
G1 X2.397 Y-12.047 Z20.2 E0.02421
G1 X1.537 Y-12.543 Z20.2 E0.01831
G1 X2.838 Y-11.242 Z20.2 E0.03391
G1 X2.356 Y-11.361 Z20.2 E0.00915
G1 X1.516 Y-12.2 Z20.2 E0.021885
G1 X0.677 Y-13.04 Z20.2 E0.021885
G1 X0.137 Y-13.352 Z20.2 E0.0115
G1 X-0.131 Y-13.484 Z20.2 E0.00549
G1 X0.896 Y-12.457 Z20.2 E0.02677
G1 X1.923 Y-11.43 Z20.2 E0.02677
G1 X1.501 Y-11.488 Z20.2 E0.00786
G1 X0.385 Y-12.604 Z20.2 E0.0291
G1 X-0.732 Y-13.721 Z20.2 E0.0291
G1 X-0.833 Y-13.756 Z20.2 E0.00198
G1 X-1.203 Y-13.829 Z20.2 E0.00694
G1 X-0.062 Y-12.688 Z20.2 E0.029745
G1 X1.079 Y-11.547 Z20.2 E0.029745
G1 X0.888 Y-11.573 Z20.2 E0.00357
G1 X0.683 Y-11.579 Z20.2 E0.00377
G1 X-0.464 Y-12.727 Z20.2 E0.029905
G1 X-1.611 Y-13.874 Z20.2 E0.029905
G1 X-1.876 Y-13.891 Z20.2 E0.00487
G1 X-1.992 Y-13.891 Z20.2 E0.00215
G1 X-0.841 Y-12.741 Z20.2 E0.02998
G1 X0.309 Y-11.591 Z20.2 E0.02998
G1 X-0.066 Y-11.602 Z20.2 E0.00691
G1 X-1.211 Y-12.747 Z20.2 E0.029835
G1 X-2.356 Y-13.891 Z20.2 E0.029835
G1 X-2.719 Y-13.891 Z20.2 E0.0067
G1 X-1.57 Y-12.742 Z20.2 E0.02994
G1 X-0.422 Y-11.594 Z20.2 E0.02994
G1 X-0.772 Y-11.58 Z20.2 E0.00645
G1 X-1.928 Y-12.736 Z20.2 E0.03012
G1 X-3.083 Y-13.891 Z20.2 E0.03012
G1 X-3.446 Y-13.891 Z20.2 E0.0067
G1 X-2.275 Y-12.72 Z20.2 E0.030525
G1 X-1.104 Y-11.549 Z20.2 E0.030525
G1 X-1.431 Y-11.512 Z20.2 E0.00606
G1 X-2.62 Y-12.702 Z20.2 E0.031
G1 X-3.81 Y-13.891 Z20.2 E0.031
G1 X-4.173 Y-13.891 Z20.2 E0.0067
G1 X-2.963 Y-12.681 Z20.2 E0.03154
G1 X-1.753 Y-11.471 Z20.2 E0.03154
G1 X-2.058 Y-11.412 Z20.2 E0.00572
G1 X-3.298 Y-12.652 Z20.2 E0.0323
G1 X-4.537 Y-13.891 Z20.2 E0.0323
G1 X-4.901 Y-13.891 Z20.2 E0.0067
G1 X-3.632 Y-12.622 Z20.2 E0.033065
G1 X-2.363 Y-11.354 Z20.2 E0.033065
G1 X-2.639 Y-11.301 Z20.2 E0.00518
G1 X-2.667 Y-11.294 Z20.2 E0.0
G1 X-3.966 Y-12.593 Z20.2 E0.03385
G1 X-5.264 Y-13.891 Z20.2 E0.03385
G1 X-5.628 Y-13.891 Z20.2 E0.0067
G1 X-4.291 Y-12.554 Z20.2 E0.03484
G1 X-2.954 Y-11.218 Z20.2 E0.03484
G1 X-3.242 Y-11.142 Z20.2 E0.00548
G1 X-4.616 Y-12.516 Z20.2 E0.03583
G1 X-5.991 Y-13.891 Z20.2 E0.03583
G1 X-6.355 Y-13.891 Z20.2 E0.0067
G1 X-5.41 Y-12.946 Z20.2 E0.024623
G1 X-4.466 Y-12.002 Z20.2 E0.024623
G1 X-3.521 Y-11.057 Z20.2 E0.024623
G1 X-3.791 Y-10.964 Z20.2 E0.00527
G1 X-4.767 Y-11.94 Z20.2 E0.02543
G1 X-5.742 Y-12.915 Z20.2 E0.02543
G1 X-6.718 Y-13.891 Z20.2 E0.02543
G1 X-7.082 Y-13.891 Z20.2 E0.0067
G1 X-6.075 Y-12.884 Z20.2 E0.02624
G1 X-5.069 Y-11.878 Z20.2 E0.02624
G1 X-4.062 Y-10.871 Z20.2 E0.02624
G1 X-4.119 Y-10.851 Z20.2 E0.00111
G1 X-4.319 Y-10.765 Z20.2 E0.00403
G1 X-5.361 Y-11.807 Z20.2 E0.027157
G1 X-6.404 Y-12.849 Z20.2 E0.027157
G1 X-7.446 Y-13.891 Z20.2 E0.027157
G1 X-7.809 Y-13.891 Z20.2 E0.0067
G1 X-6.731 Y-12.813 Z20.2 E0.02811
G1 X-5.652 Y-11.734 Z20.2 E0.02811
G1 X-4.574 Y-10.656 Z20.2 E0.02811
G1 X-4.828 Y-10.546 Z20.2 E0.0051
G1 X-5.943 Y-11.661 Z20.2 E0.02906
G1 X-7.058 Y-12.776 Z20.2 E0.02906
G1 X-8.173 Y-13.891 Z20.2 E0.02906
G1 X-8.536 Y-13.891 Z20.2 E0.0067
G1 X-7.383 Y-12.738 Z20.2 E0.030047
G1 X-6.231 Y-11.586 Z20.2 E0.030047
G1 X-5.078 Y-10.433 Z20.2 E0.030047
G1 X-5.318 Y-10.309 Z20.2 E0.00497
G1 X-6.512 Y-11.503 Z20.2 E0.03112
G1 X-7.706 Y-12.697 Z20.2 E0.03112
G1 X-8.9 Y-13.891 Z20.2 E0.03112
G1 X-9.263 Y-13.891 Z20.2 E0.0067
G1 X-8.028 Y-12.656 Z20.2 E0.03219
G1 X-6.793 Y-11.421 Z20.2 E0.03219
G1 X-5.558 Y-10.186 Z20.2 E0.03219
G1 X-5.681 Y-10.123 Z20.2 E0.00255
G1 X-5.792 Y-10.056 Z20.2 E0.00237
G1 X-7.07 Y-11.334 Z20.2 E0.033323
G1 X-8.349 Y-12.613 Z20.2 E0.033323
G1 X-9.627 Y-13.891 Z20.2 E0.033323
G1 X-9.99 Y-13.891 Z20.2 E0.0067
G1 X-8.666 Y-12.567 Z20.2 E0.034517
G1 X-7.342 Y-11.242 Z20.2 E0.034517
G1 X-6.018 Y-9.918 Z20.2 E0.034517
G1 X-6.244 Y-9.781 Z20.2 E0.00487
G1 X-7.614 Y-11.151 Z20.2 E0.035713
G1 X-8.984 Y-12.521 Z20.2 E0.035713
G1 X-10.354 Y-13.891 Z20.2 E0.035713
G1 X-10.718 Y-13.891 Z20.2 E0.0067
G1 X-9.654 Y-12.827 Z20.2 E0.027727
G1 X-8.59 Y-11.764 Z20.2 E0.027727
G1 X-7.526 Y-10.7 Z20.2 E0.027727
G1 X-6.462 Y-9.636 Z20.2 E0.027727
G1 X-6.674 Y-9.484 Z20.2 E0.00481
G1 X-7.776 Y-10.586 Z20.2 E0.028717
G1 X-8.878 Y-11.688 Z20.2 E0.028717
G1 X-9.979 Y-12.789 Z20.2 E0.028717
G1 X-11.081 Y-13.891 Z20.2 E0.028717
G1 X-11.445 Y-13.891 Z20.2 E0.0067
G1 X-10.305 Y-12.751 Z20.2 E0.02971
G1 X-9.165 Y-11.612 Z20.2 E0.02971
G1 X-8.025 Y-10.472 Z20.2 E0.02971
G1 X-6.885 Y-9.332 Z20.2 E0.02971
G1 X-7.097 Y-9.18 Z20.2 E0.00481
G1 X-8.275 Y-10.358 Z20.2 E0.0307
G1 X-9.452 Y-11.535 Z20.2 E0.0307
G1 X-10.63 Y-12.713 Z20.2 E0.0307
G1 X-11.808 Y-13.891 Z20.2 E0.0307
G1 X-12.172 Y-13.891 Z20.2 E0.0067
G1 X-10.954 Y-12.673 Z20.2 E0.031753
G1 X-9.736 Y-11.454 Z20.2 E0.031753
G1 X-8.517 Y-10.236 Z20.2 E0.031753
G1 X-7.299 Y-9.018 Z20.2 E0.031753
G1 X-7.498 Y-8.854 Z20.2 E0.00476
G1 X-8.757 Y-10.113 Z20.2 E0.032822
G1 X-10.016 Y-11.372 Z20.2 E0.032822
G1 X-11.276 Y-12.632 Z20.2 E0.032822
G1 X-12.535 Y-13.891 Z20.2 E0.032822
G1 X-12.899 Y-13.891 Z20.2 E0.0067
G1 X-11.598 Y-12.59 Z20.2 E0.0339
G1 X-10.298 Y-11.29 Z20.2 E0.0339
G1 X-8.997 Y-9.989 Z20.2 E0.0339
G1 X-7.696 Y-8.688 Z20.2 E0.0339
G1 X-7.883 Y-8.512 Z20.2 E0.00474
G1 X-9.228 Y-9.857 Z20.2 E0.035053
G1 X-10.573 Y-11.202 Z20.2 E0.035053
G1 X-11.918 Y-12.546 Z20.2 E0.035053
G1 X-13.263 Y-13.891 Z20.2 E0.035053
G1 X-13.626 Y-13.891 Z20.2 E0.0067
G1 X-12.237 Y-12.502 Z20.2 E0.0362
G1 X-10.848 Y-11.113 Z20.2 E0.0362
G1 X-9.46 Y-9.724 Z20.2 E0.0362
G1 X-8.071 Y-8.335 Z20.2 E0.0362
G1 X-8.243 Y-8.173 Z20.2 E0.00436
G1 X-8.256 Y-8.158 Z20.2 E0.0
G1 X-9.665 Y-9.567 Z20.2 E0.036715
G1 X-11.074 Y-10.976 Z20.2 E0.036715
G1 X-12.482 Y-12.384 Z20.2 E0.036715
G1 X-13.891 Y-13.793 Z20.2 E0.036715
G1 X-13.891 Y-13.429 Z20.2 E0.0067
G1 X-12.525 Y-12.063 Z20.2 E0.035597
G1 X-11.16 Y-10.698 Z20.2 E0.035597
G1 X-9.794 Y-9.332 Z20.2 E0.035597
G1 X-8.428 Y-7.966 Z20.2 E0.035597
G1 X-8.6 Y-7.774 Z20.2 E0.00474
G1 X-9.923 Y-9.097 Z20.2 E0.03448
G1 X-11.246 Y-10.42 Z20.2 E0.03448
G1 X-12.568 Y-11.742 Z20.2 E0.03448
G1 X-13.891 Y-13.065 Z20.2 E0.03448
G1 X-13.891 Y-12.702 Z20.2 E0.0067
G1 X-12.611 Y-11.422 Z20.2 E0.03336
G1 X-11.331 Y-10.142 Z20.2 E0.03336
G1 X-10.051 Y-8.862 Z20.2 E0.03336
G1 X-8.771 Y-7.582 Z20.2 E0.03336
G1 X-8.943 Y-7.39 Z20.2 E0.00475
G1 X-10.18 Y-8.627 Z20.2 E0.032243
G1 X-11.417 Y-9.864 Z20.2 E0.032243
G1 X-12.654 Y-11.101 Z20.2 E0.032243
G1 X-13.891 Y-12.338 Z20.2 E0.032243
G1 X-13.891 Y-11.975 Z20.2 E0.00671
G1 X-12.694 Y-10.778 Z20.2 E0.031205
G1 X-11.497 Y-9.58 Z20.2 E0.031205
G1 X-10.299 Y-8.382 Z20.2 E0.031205
G1 X-9.102 Y-7.185 Z20.2 E0.031205
G1 X-9.256 Y-6.976 Z20.2 E0.0048
G1 X-10.415 Y-8.135 Z20.2 E0.0302
G1 X-11.574 Y-9.294 Z20.2 E0.0302
G1 X-12.732 Y-10.452 Z20.2 E0.0302
G1 X-13.891 Y-11.611 Z20.2 E0.0302
G1 X-13.891 Y-11.248 Z20.2 E0.00671
G1 X-12.771 Y-10.128 Z20.2 E0.029198
G1 X-11.651 Y-9.008 Z20.2 E0.029198
G1 X-10.53 Y-7.887 Z20.2 E0.029198
G1 X-9.41 Y-6.767 Z20.2 E0.029198
G1 X-9.564 Y-6.557 Z20.2 E0.00479
G1 X-10.646 Y-7.639 Z20.2 E0.028192
G1 X-11.728 Y-8.721 Z20.2 E0.028192
G1 X-12.809 Y-9.802 Z20.2 E0.028192
G1 X-13.891 Y-10.884 Z20.2 E0.028192
G1 X-13.891 Y-10.52 Z20.2 E0.0067
G1 X-12.498 Y-9.127 Z20.2 E0.036303
G1 X-11.105 Y-7.735 Z20.2 E0.036303
G1 X-9.712 Y-6.342 Z20.2 E0.036303
G1 X-9.846 Y-6.112 Z20.2 E0.0049
G1 X-11.194 Y-7.46 Z20.2 E0.035143
G1 X-12.543 Y-8.809 Z20.2 E0.035143
G1 X-13.891 Y-10.157 Z20.2 E0.035143
G1 X-13.891 Y-9.793 Z20.2 E0.0067
G1 X-12.587 Y-8.489 Z20.2 E0.033983
G1 X-11.284 Y-7.186 Z20.2 E0.033983
G1 X-9.98 Y-5.882 Z20.2 E0.033983
G1 X-10.113 Y-5.652 Z20.2 E0.0049
G1 X-11.372 Y-6.911 Z20.2 E0.03282
G1 X-12.632 Y-8.171 Z20.2 E0.03282
G1 X-13.891 Y-9.43 Z20.2 E0.03282
G1 X-13.891 Y-9.066 Z20.2 E0.0067
G1 X-12.676 Y-7.851 Z20.2 E0.03166
G1 X-11.462 Y-6.637 Z20.2 E0.03166
G1 X-10.247 Y-5.422 Z20.2 E0.03166
G1 X-10.355 Y-5.236 Z20.2 E0.00398
G1 X-10.376 Y-5.188 Z20.2 E0.0
G1 X-11.548 Y-6.36 Z20.2 E0.030533
G1 X-12.719 Y-7.531 Z20.2 E0.030533
G1 X-13.891 Y-8.703 Z20.2 E0.030533
G1 X-13.891 Y-8.339 Z20.2 E0.0067
G1 X-12.756 Y-7.204 Z20.2 E0.029573
G1 X-11.622 Y-6.07 Z20.2 E0.029573
G1 X-10.487 Y-4.935 Z20.2 E0.029573
G1 X-10.598 Y-4.683 Z20.2 E0.00508
G1 X-11.696 Y-5.78 Z20.2 E0.02861
G1 X-12.793 Y-6.878 Z20.2 E0.02861
G1 X-13.891 Y-7.975 Z20.2 E0.02861
G1 X-13.891 Y-7.612 Z20.2 E0.0067
G1 X-12.83 Y-6.551 Z20.2 E0.027643
G1 X-11.77 Y-5.491 Z20.2 E0.027643
G1 X-10.709 Y-4.43 Z20.2 E0.027643
G1 X-10.82 Y-4.178 Z20.2 E0.00508
G1 X-11.844 Y-5.201 Z20.2 E0.02668
G1 X-12.867 Y-6.225 Z20.2 E0.02668
G1 X-13.891 Y-7.248 Z20.2 E0.02668
G1 X-13.891 Y-6.885 Z20.2 E0.0067
G1 X-12.899 Y-5.893 Z20.2 E0.025847
G1 X-11.908 Y-4.902 Z20.2 E0.025847
G1 X-10.916 Y-3.91 Z20.2 E0.025847
G1 X-11.003 Y-3.633 Z20.2 E0.00534
G1 X-11.966 Y-4.596 Z20.2 E0.02509
G1 X-12.928 Y-5.558 Z20.2 E0.02509
G1 X-13.891 Y-6.521 Z20.2 E0.02509
G1 X-13.891 Y-6.158 Z20.2 E0.0067
G1 X-12.49 Y-4.758 Z20.2 E0.0365
G1 X-11.09 Y-3.357 Z20.2 E0.0365
G1 X-11.178 Y-3.081 Z20.2 E0.00534
G1 X-12.535 Y-4.438 Z20.2 E0.03536
G1 X-13.891 Y-5.794 Z20.2 E0.03536
G1 X-13.891 Y-5.431 Z20.2 E0.0067
G1 X-12.574 Y-4.114 Z20.2 E0.03433
G1 X-11.257 Y-2.796 Z20.2 E0.03433
G1 X-11.319 Y-2.495 Z20.2 E0.00567
G1 X-12.605 Y-3.781 Z20.2 E0.033525
G1 X-13.891 Y-5.067 Z20.2 E0.033525
G1 X-13.891 Y-4.703 Z20.2 E0.0067
G1 X-12.636 Y-3.448 Z20.2 E0.032715
G1 X-11.381 Y-2.193 Z20.2 E0.032715
G1 X-11.442 Y-1.891 Z20.2 E0.00568
G1 X-12.666 Y-3.116 Z20.2 E0.03191
G1 X-13.891 Y-4.34 Z20.2 E0.03191
G1 X-13.891 Y-3.976 Z20.2 E0.0067
G1 X-12.689 Y-2.774 Z20.2 E0.031335
G1 X-11.487 Y-1.572 Z20.2 E0.031335
G1 X-11.518 Y-1.24 Z20.2 E0.00614
G1 X-12.704 Y-2.426 Z20.2 E0.030925
G1 X-13.891 Y-3.613 Z20.2 E0.030925
G1 X-13.891 Y-3.249 Z20.2 E0.0067
G1 X-12.721 Y-2.078 Z20.2 E0.030505
G1 X-11.55 Y-0.908 Z20.2 E0.030505
G1 X-11.582 Y-0.576 Z20.2 E0.00615
G1 X-12.736 Y-1.731 Z20.2 E0.030095
G1 X-13.891 Y-2.886 Z20.2 E0.030095
G1 X-13.891 Y-2.522 Z20.2 E0.0067
G1 X-12.742 Y-1.372 Z20.2 E0.02996
G1 X-11.592 Y-0.223 Z20.2 E0.02996
G1 X-11.585 Y0.147 Z20.2 E0.00683
G1 X-12.738 Y-1.005 Z20.2 E0.030045
G1 X-13.891 Y-2.158 Z20.2 E0.030045
G1 X-13.891 Y-1.795 Z20.2 E0.0067
G1 X-12.734 Y-0.639 Z20.2 E0.03014
G1 X-11.578 Y0.518 Z20.2 E0.03014
G1 X-11.573 Y0.841 Z20.2 E0.00596
G1 X-11.566 Y0.894 Z20.2 E0.0
G1 X-12.728 Y-0.269 Z20.2 E0.0303
G1 X-13.891 Y-1.431 Z20.2 E0.0303
G1 X-13.891 Y-1.068 Z20.2 E0.0067
G1 X-12.703 Y0.12 Z20.2 E0.03097
G1 X-11.515 Y1.309 Z20.2 E0.03097
G1 X-11.463 Y1.724 Z20.2 E0.00771
G1 X-12.677 Y0.51 Z20.2 E0.03164
G1 X-13.891 Y-0.704 Z20.2 E0.03164
G1 X-13.891 Y-0.341 Z20.2 E0.0067
G1 X-12.644 Y0.907 Z20.2 E0.03251
G1 X-11.396 Y2.154 Z20.2 E0.03251
G1 X-11.286 Y2.628 Z20.2 E0.00897
G1 X-12.588 Y1.326 Z20.2 E0.033955
G1 X-13.891 Y0.023 Z20.2 E0.033955
G1 X-13.891 Y0.386 Z20.2 E0.0067
G1 X-12.533 Y1.744 Z20.2 E0.03539
G1 X-11.175 Y3.102 Z20.2 E0.03539
G1 X-11.152 Y3.204 Z20.2 E0.00192
G1 X-10.997 Y3.645 Z20.2 E0.00861
G1 X-11.962 Y2.68 Z20.2 E0.02515
G1 X-12.926 Y1.715 Z20.2 E0.02515
G1 X-13.891 Y0.75 Z20.2 E0.02515
G1 X-13.891 Y1.114 Z20.2 E0.0067
G1 X-12.86 Y2.145 Z20.2 E0.026863
G1 X-11.83 Y3.175 Z20.2 E0.026863
G1 X-10.799 Y4.206 Z20.2 E0.026863
G1 X-10.701 Y4.485 Z20.2 E0.00546
G1 X-10.529 Y4.839 Z20.2 E0.00725
G1 X-11.65 Y3.718 Z20.2 E0.029207
G1 X-12.77 Y2.598 Z20.2 E0.029207
G1 X-13.891 Y1.477 Z20.2 E0.029207
G1 X-13.891 Y1.841 Z20.2 E0.0067
G1 X-12.549 Y3.183 Z20.2 E0.034977
G1 X-11.207 Y4.524 Z20.2 E0.034977
G1 X-9.865 Y5.866 Z20.2 E0.034977
M106 S255
G1 E-0.63 F2100
;WIPE_START
G1 F7200
G1 X-10.035 Y5.697 Z20.2 E-0.0665
;WIPE_END
G1 E-0.0035 F2100
G1  Z20.4 F9000
; acceleration to travel
M204 P1000 T1500
G1 X-8.414 Y6.274 Z20.4
G1 X-6.793 Y6.852 Z20.107
G1 X-5.172 Y7.429 Z19.907
G1 X-3.551 Y8.007 Z19.803
G1 X-1.93 Y8.584 Z19.815
G1 X-0.309 Y9.162 Z19.935
G1 X1.312 Y9.739 Z20.17
; decel to extrusion
M204 P1000 T1000
G1 X2.698 Y10.233 Z20.4
G1 X4.084 Y10.727 Z20.4
; end travel
M204 P1000 T1500
G1  Z20.2
G1 E0.7 F2100
M106 S255
G1 F1200
G1 X4.291 Y10.934 Z20.2 E0.0054
G1 X4.253 Y10.975 Z20.2 E0.00103
G1 X4.073 Y11.079 Z20.2 E0.00384
G1 X3.909 Y10.915 Z20.2 E0.00427
G1 X3.771 Y10.97 Z20.2 E0.00274
G1 X3.638 Y11.008 Z20.2 E0.00254
G1 X3.842 Y11.212 Z20.2 E0.00533
G1 X3.612 Y11.345 Z20.2 E0.0049
G1 X3.355 Y11.089 Z20.2 E0.0067
G1 X3.072 Y11.169 Z20.2 E0.00542
G1 X3.381 Y11.478 Z20.2 E0.00807
G1 X3.151 Y11.612 Z20.2 E0.0049
G1 X2.789 Y11.25 Z20.2 E0.00943
G1 X2.566 Y11.313 Z20.2 E0.00427
G1 X2.5 Y11.324 Z20.2 E0.00124
G1 X2.921 Y11.745 Z20.2 E0.01095
G1 X2.69 Y11.878 Z20.2 E0.00491
G1 X2.19 Y11.377 Z20.2 E0.01304
G1 X1.879 Y11.43 Z20.2 E0.00581
G1 X2.46 Y12.011 Z20.2 E0.01513
G1 X2.229 Y12.144 Z20.2 E0.0049
G1 X1.569 Y11.483 Z20.2 E0.01721
G1 X1.331 Y11.524 Z20.2 E0.00445
G1 X1.251 Y11.529 Z20.2 E0.00148
G1 X1.999 Y12.277 Z20.2 E0.0195
G1 X1.768 Y12.41 Z20.2 E0.0049
G1 X0.908 Y11.55 Z20.2 E0.02242
G1 X0.565 Y11.571 Z20.2 E0.00633
G1 X1.538 Y12.543 Z20.2 E0.02534
G1 X1.307 Y12.676 Z20.2 E0.0049
G1 X0.223 Y11.592 Z20.2 E0.02827
G1 X0.081 Y11.6 Z20.2 E0.00262
G1 X-0.143 Y11.59 Z20.2 E0.00412
G1 X1.077 Y12.809 Z20.2 E0.03178
G1 X0.846 Y12.942 Z20.2 E0.0049
G1 X-0.524 Y11.572 Z20.2 E0.03572
G1 X-0.906 Y11.554 Z20.2 E0.00704
G1 X-0.145 Y12.314 Z20.2 E0.01982
G1 X0.616 Y13.075 Z20.2 E0.01982
G1 X0.385 Y13.208 Z20.2 E0.00491
G1 X-0.458 Y12.364 Z20.2 E0.02199
G1 X-1.302 Y11.521 Z20.2 E0.02199
G1 X-1.733 Y11.454 Z20.2 E0.00803
G1 X-0.789 Y12.398 Z20.2 E0.024605
G1 X0.155 Y13.342 Z20.2 E0.024605
G1 X0.134 Y13.353 Z20.2 E0.0
G1 X-0.087 Y13.464 Z20.2 E0.00456
G1 X-1.126 Y12.426 Z20.2 E0.02707
G1 X-2.164 Y11.387 Z20.2 E0.02707
G1 X-2.409 Y11.348 Z20.2 E0.00457
G1 X-2.624 Y11.29 Z20.2 E0.0041
G1 X-1.478 Y12.436 Z20.2 E0.02986
G1 X-0.332 Y13.582 Z20.2 E0.02986
G1 X-0.602 Y13.676 Z20.2 E0.00526
G1 X-1.862 Y12.416 Z20.2 E0.03283
G1 X-3.121 Y11.156 Z20.2 E0.03283
G1 X-3.619 Y11.022 Z20.2 E0.0095
G1 X-2.248 Y12.392 Z20.2 E0.03572
G1 X-0.878 Y13.763 Z20.2 E0.03572
G1 X-1.181 Y13.823 Z20.2 E0.0057
G1 X-2.19 Y12.814 Z20.2 E0.026307
G1 X-3.2 Y11.804 Z20.2 E0.026307
G1 X-4.209 Y10.795 Z20.2 E0.026307
G1 X-4.698 Y10.608 Z20.2 E0.00966
G1 X-4.827 Y10.541 Z20.2 E0.00267
G1 X-3.718 Y11.65 Z20.2 E0.028893
G1 X-2.61 Y12.758 Z20.2 E0.028893
G1 X-1.501 Y13.867 Z20.2 E0.028893
G1 X-1.843 Y13.889 Z20.2 E0.00631
G1 X-3.173 Y12.559 Z20.2 E0.034663
G1 X-4.502 Y11.229 Z20.2 E0.034663
G1 X-5.832 Y9.899 Z20.2 E0.034663
M106 S255
G1 E-0.63 F2100
;WIPE_START
G1 F7200
G1 X-5.663 Y10.069 Z20.2 E-0.0665
;WIPE_END
G1 E-0.0035 F2100
G1  Z20.4 F9000
; acceleration to travel
G1 X-4.707 Y11.122 Z20.4
G1 X-3.751 Y12.176 Z20.4
G1 X-2.795 Y13.229 Z20.4
; decel to extrusion
M204 P1000 T1000
G1 X-2.094 Y14.002 Z20.4
; end travel
M204 P1000 T1500
G1  Z20.2
G1 E0.7 F2100
M106 S255
G1 F1200
G1 X-3.2 Y12.896 Z20.2 E0.02882
G1 X-4.306 Y11.791 Z20.2 E0.02882
G1 X-5.411 Y10.685 Z20.2 E0.02882
G1 X-6.517 Y9.579 Z20.2 E0.02882
G1 X-6.95 Y9.29 Z20.2 E0.0096
G1 X-7.912 Y8.486 Z20.2 E0.0231
