; generated by SuperSlicer 2.5.59.13 on 2025-11-06 at 06:10:43 UTC

; 

; external perimeters extrusion width = 0.30mm
; perimeters extrusion width = 0.30mm
; infill extrusion width = 0.30mm
; solid infill extrusion width = 0.30mm
; top infill extrusion width = 0.30mm


M106 S255
M140 S50 ; set bed temperature
G10 P0 R220 ; sets the standby temperature
G10 P0 S220 ; set temperature
;TYPE:Custom
G1 E0.7 F1800
G21 ; set units to millimeters
G90 ; use absolute coordinates
M83 ; use relative distances for extrusion
; FILAMENT_START_GCODE
G10 P0 S220 ; set temperature
M116 ; wait for temperature to be reached
M190 S50 ; set bed temperature and wait for it to be reached
;LAYER_CHANGE
;Z:38.2
;HEIGHT:38.200001
; BEFORE_LAYER_CHANGE
;38.2
G92 E0

G1 E-0.7 F2100
G1 Z0.2 F9000
G1 Z38.2
; AFTER_LAYER_CHANGE
;38.2
G1 Z38.4
M204 P1000 T1000
G1 X-8.528 Y16.689
G1 Z38.2
G1 E0.7 F2100
;TYPE:Solid infill
;WIDTH:0.268847
;HEIGHT:0.2
M106 S255
G1 F1200
G1 X-8.109 Y17.108 E0.01021
G1 X-8.109 Y17.472 E0.00627
G1 X-8.784 Y16.797 E0.01645
G1 X-9.147 Y16.797 E0.00627
G1 X-8.109 Y17.835 E0.02532
G1 X-8.109 Y18.065 E0.00397
G1 X-8.201 Y18.106 E0.00174
G1 X-9.511 Y16.797 E0.03192
G1 X-9.874 Y16.797 E0.00627
G1 X-8.471 Y18.2 E0.03421
G1 X-8.752 Y18.283 E0.00505
G1 X-10.238 Y16.797 E0.03623
G1 X-10.601 Y16.797 E0.00627
G1 X-9.065 Y18.333 E0.03746
G1 X-9.384 Y18.378 E0.00555
G1 X-10.891 Y16.871 E0.03675
G1 X-10.891 Y17.234 E0.00627
G1 X-9.742 Y18.383 E0.02802
G1 X-10.103 Y18.385 E0.00623
G1 X-10.891 Y17.598 E0.0192
G1 X-10.891 Y17.961 E0.00627
G1 X-10.465 Y18.388 E0.01039
G1 X-10.826 Y18.39 E0.00623
G1 X-11.002 Y18.214 E0.00428
M106 S255
G1 E-0.63 F2100
;WIPE_START
G1 F7200
G1 X-10.832 Y18.384 E-0.0665
;WIPE_END
G1 E-0.0035 F2100
G1 Z38.4 F9000
; acceleration to travel
M204 P1000 T1500
G1 X-8.493 Y16.969
; decel to extrusion
M204 P1000 T1000
G1 X-7.921 Y16.623
; end travel
M204 P1000 T1500
G1 Z38.2
G1 E0.7 F2100
;TYPE:Internal perimeter
;WIDTH:0.299999
M106 S255
G1 F1200
G1 X-8.703 Y16.609 E0.01504
G1 X-9.294 Y16.618 E0.01137
G1 X-10.091 Y16.614 E0.01534
G1 X-11.079 Y16.609 E0.019
G1 X-11.079 Y18.579 E0.03789
G1 X-9.652 Y18.579 E0.02746
G1 X-9.145 Y18.534 E0.00978
G1 X-8.586 Y18.429 E0.01095
G1 X-7.921 Y18.188 E0.0136
G1 X-7.921 Y16.683 E0.02896
M106 S255
M204 P1000 T1000
G1 X-7.664 Y16.37 F9000
M106 S255
G1 F1200
G1 X-8.703 Y16.352 E0.01998
G1 X-9.298 Y16.361 E0.01145
G1 X-11.336 Y16.351 E0.03921
G1 X-11.336 Y18.836 E0.04781
G1 X-9.647 Y18.836 E0.0325
G1 X-9.148 Y18.794 E0.00962
G1 X-8.612 Y18.705 E0.01045
G1 X-8.103 Y18.548 E0.01026
G1 X-7.664 Y18.349 E0.00927
G1 X-7.664 Y16.43 E0.0369
M106 S255
G1 X-7.407 Y16.116 F9000
M106 S255
G1 F1200
G1 X-7.595 Y16.114 E0.00363
G1 X-8.703 Y16.095 E0.0213
G1 X-9.302 Y16.104 E0.01154
G1 X-11.365 Y16.094 E0.03968
G1 X-11.593 Y16.103 E0.00439
G1 X-11.593 Y19.093 E0.05753
G1 X-9.642 Y19.093 E0.03754
G1 X-9.113 Y19.049 E0.01021
G1 X-8.539 Y18.952 E0.01119
G1 X-8.056 Y18.809 E0.00969
G1 X-7.407 Y18.505 E0.01379
G1 X-7.407 Y16.176 E0.04481
M106 S255
G1 X-7.15 Y15.861 F9000
;TYPE:External perimeter
M106 S255
G1 F1200
G1 X-7.591 Y15.857 E0.00848
G1 X-8.702 Y15.838 E0.02139
G1 X-9.309 Y15.847 E0.01167
G1 X-11.369 Y15.836 E0.03964
G1 X-11.85 Y15.855 E0.00926
G1 X-11.85 Y19.35 E0.06723
G1 X-9.637 Y19.35 E0.04258
G1 X-9.077 Y19.303 E0.0108
G1 X-8.466 Y19.198 E0.01192
G1 X-7.968 Y19.051 E0.01001
G1 X-7.15 Y18.662 E0.01742
G1 X-7.15 Y15.921 E0.05273
M106 S255
;WIPE_START
G1 X-7.492 Y15.658 F9000
;WIPE_END
G1 E-0.63 F2100
;WIPE_START
G1 F7200
G1 X-7.588 Y15.657 E-0.0265
G1 X-7.732 Y15.655 E-0.04
;WIPE_END
G1 E-0.0035 F2100
G1 Z38.4 F9000
; acceleration to travel
M204 P1000 T1500
G1 X1.061 Y9.574
; decel to extrusion
M204 P1000 T1000
G1 X3.209 Y8.089
; end travel
M204 P1000 T1500
G1 Z38.2
G1 E0.7 F2100
;TYPE:Internal perimeter
M106 S255
G1 F1200
G1 X2.859 Y8.089 E0.00674
G1 X2.849 Y8.681 E0.0114
G1 X2.854 Y8.801 E0.00231
G1 X6.76 Y8.805 E0.07515
G1 X6.76 Y8.447 E0.00689
G1 X6.76 Y8.089 E0.00689
G1 X3.269 Y8.089 E0.06716
M106 S255
M204 P1000 T1000
G1 X2.614 Y7.832 F9000
M106 S255
G1 F1200
G1 X2.596 Y8.436 E0.01164
G1 X2.608 Y9.058 E0.01196
G1 X7.018 Y9.062 E0.08483
G1 X7.018 Y8.447 E0.01185
G1 X7.018 Y7.832 E0.01183
G1 X2.674 Y7.832 E0.08357
M106 S255
G1 X2.368 Y7.575 F9000
;TYPE:External perimeter
M106 S255
G1 F1200
G1 X2.344 Y8.104 E0.01019
G1 X2.335 Y8.692 E0.01132
G1 X2.361 Y9.308 E0.01186
G1 X2.967 Y9.315 E0.01165
G1 X7.275 Y9.32 E0.08288
G1 X7.275 Y7.575 E0.03357
G1 X2.428 Y7.575 E0.09324
M106 S255
;WIPE_START
G1 X2.153 Y7.899 F9000
;WIPE_END
; acceleration to travel
M204 P1000 T1500
G1 X2.787 Y8.227
; decel to extrusion
M204 P1000 T1000
G1 X3.209 Y8.445
; end travel
;TYPE:Internal perimeter
;WIDTH:0.498438
M106 S255
G1 F1200
M204 P1000 T1500
G1 X6.403 Y8.447 E0.10886
M106 S255
G1 E-0.63 F2100
;WIPE_START
G1 F7200
G1 X6.163 Y8.447 E-0.0665
;WIPE_END
G1 E-0.0035 F2100
G1 Z38.4 F9000
; acceleration to travel
G1 X-7.631 Y4.92
; decel to extrusion
M204 P1000 T1000
G1 X-11.002 Y4.058
; end travel
M204 P1000 T1500
G1 Z38.2
G1 E0.7 F2100
;TYPE:Solid infill
;WIDTH:0.279674
M106 S255
G1 F1200
G1 X-10.778 Y4.281 E0.00567
G1 X-10.684 Y4.539 E0.00492
G1 X-10.486 Y4.937 E0.00796
G1 X-10.891 Y4.532 E0.01027
G1 X-10.891 Y4.895 E0.00652
G1 X-10.129 Y5.658 E0.01934
G1 X-10.079 Y5.759 E0.00202
G1 X-9.509 Y6.641 E0.01884
G1 X-10.891 Y5.259 E0.03507
G1 X-10.891 Y5.623 E0.00652
G1 X-7.795 Y8.719 E0.07854
G1 X-7.928 Y8.949 E0.00477
G1 X-10.891 Y5.986 E0.07516
G1 X-10.891 Y6.35 E0.00652
G1 X-8.061 Y9.18 E0.07178
G1 X-8.089 Y9.228 E0.001
G1 X-8.092 Y9.512 E0.0051
G1 X-10.891 Y6.713 E0.071
G1 X-10.891 Y7.077 E0.00652
G1 X-8.095 Y9.873 E0.07092
G1 X-8.098 Y10.233 E0.00646
G1 X-10.891 Y7.44 E0.07084
G1 X-10.891 Y7.804 E0.00652
G1 X-8.102 Y10.593 E0.07075
G1 X-8.105 Y10.954 E0.00646
G1 X-10.891 Y8.167 E0.07067
G1 X-10.891 Y8.531 E0.00653
G1 X-8.216 Y11.206 E0.06784
G1 X-8.582 Y11.204 E0.00655
G1 X-10.891 Y8.895 E0.05857
G1 X-10.891 Y9.258 E0.00653
G1 X-8.947 Y11.202 E0.04931
G1 X-9.312 Y11.201 E0.00655
G1 X-10.891 Y9.622 E0.04004
G1 X-10.891 Y9.985 E0.00652
G1 X-9.678 Y11.199 E0.03078
G1 X-10.043 Y11.197 E0.00655
G1 X-10.891 Y10.349 E0.02151
G1 X-10.891 Y10.712 E0.00653
G1 X-10.408 Y11.195 E0.01224
G1 X-10.774 Y11.194 E0.00655
G1 X-11.002 Y10.965 E0.00579
M106 S255
G1 E-0.63 F2100
;WIPE_START
G1 F7200
G1 X-10.832 Y11.135 E-0.0665
;WIPE_END
G1 E-0.0035 F2100
G1 Z38.4 F9000
; acceleration to travel
G1 X-8.555 Y-8.888
; decel to extrusion
M204 P1000 T1000
G1 X-7.998 Y-13.78
; end travel
M204 P1000 T1500
G1 Z38.2
G1 E0.7 F2100
;WIDTH:0.28083
M106 S255
G1 F1200
G1 X-8.41 Y-14.192 E0.01049
G1 X-8.776 Y-14.194 E0.00658
G1 X-8.109 Y-13.527 E0.01699
G1 X-8.109 Y-13.164 E0.00655
G1 X-9.142 Y-14.196 E0.0263
G1 X-9.507 Y-14.199 E0.00658
G1 X-8.109 Y-12.8 E0.03562
G1 X-8.109 Y-12.437 E0.00655
G1 X-9.873 Y-14.201 E0.04493
G1 X-10.143 Y-14.202 E0.00486
G1 X-10.238 Y-14.202 E0.00171
G1 X-8.109 Y-12.073 E0.05422
G1 X-8.109 Y-11.71 E0.00655
G1 X-10.6 Y-14.201 E0.06346
G1 X-10.891 Y-14.2 E0.00524
G1 X-10.891 Y-14.128 E0.00129
G1 X-8.109 Y-11.346 E0.07087
G1 X-8.109 Y-10.982 E0.00654
G1 X-10.891 Y-13.765 E0.07086
G1 X-10.891 Y-13.401 E0.00655
G1 X-8.109 Y-10.619 E0.07086
G1 X-8.109 Y-10.255 E0.00655
G1 X-10.891 Y-13.038 E0.07086
G1 X-10.891 Y-12.674 E0.00655
G1 X-8.109 Y-9.892 E0.07086
G1 X-8.109 Y-9.528 E0.00655
G1 X-10.891 Y-12.31 E0.07086
G1 X-10.891 Y-11.947 E0.00655
G1 X-8.109 Y-9.165 E0.07086
G1 X-8.109 Y-8.801 E0.00655
G1 X-10.891 Y-11.583 E0.07086
G1 X-10.891 Y-11.22 E0.00654
G1 X-8.109 Y-8.437 E0.07087
G1 X-8.109 Y-8.296 E0.00254
G1 X-8.215 Y-8.181 E0.00283
G1 X-10.891 Y-10.856 E0.06815
G1 X-10.891 Y-10.493 E0.00655
G1 X-8.39 Y-7.991 E0.0637
G1 X-8.564 Y-7.802 E0.00464
G1 X-10.891 Y-10.129 E0.05926
G1 X-10.891 Y-9.765 E0.00655
G1 X-8.738 Y-7.613 E0.05483
G1 X-8.913 Y-7.424 E0.00463
G1 X-10.891 Y-9.402 E0.05039
G1 X-10.891 Y-9.038 E0.00654
G1 X-9.078 Y-7.225 E0.04619
G1 X-9.23 Y-7.013 E0.00469
G1 X-10.891 Y-8.675 E0.04232
G1 X-10.891 Y-8.311 E0.00654
G1 X-9.382 Y-6.802 E0.03845
G1 X-9.534 Y-6.59 E0.00469
G1 X-10.891 Y-7.948 E0.03457
G1 X-10.891 Y-7.584 E0.00655
G1 X-9.686 Y-6.379 E0.0307
G1 X-9.809 Y-6.207 E0.0038
G1 X-9.834 Y-6.163 E0.00092
G1 X-10.891 Y-7.221 E0.02693
G1 X-10.891 Y-6.857 E0.00655
G1 X-9.964 Y-5.93 E0.02361
G1 X-10.094 Y-5.697 E0.00482
G1 X-10.891 Y-6.493 E0.02029
G1 X-10.891 Y-6.13 E0.00655
G1 X-10.225 Y-5.463 E0.01697
G1 X-10.355 Y-5.23 E0.00481
G1 X-10.891 Y-5.766 E0.01365
G1 X-10.891 Y-5.403 E0.00655
G1 X-10.475 Y-4.987 E0.01058
G1 X-10.585 Y-4.733 E0.00499
G1 X-10.891 Y-5.039 E0.0078
G1 X-10.891 Y-4.676 E0.00655
G1 X-10.694 Y-4.479 E0.00502
G1 X-10.803 Y-4.224 E0.00498
G1 X-11.002 Y-4.423 E0.00505
M106 S255
G1 E-0.63 F2100
;WIPE_START
G1 F7200
G1 X-10.832 Y-4.253 E-0.0665
;WIPE_END
G1 E-0.0035 F2100
G1 Z38.4 F9000
; acceleration to travel
G1 X-11.03 Y1.344
; decel to extrusion
M204 P1000 T1000
G1 X-11.079 Y2.712
; end travel
M204 P1000 T1500
G1 Z38.2
G1 E0.7 F2100
;TYPE:Internal perimeter
;WIDTH:0.299999
M106 S255
G1 F1200
G1 X-11.079 Y11.38 E0.16675
G1 X-8.748 Y11.381 E0.04484
G1 X-8.159 Y11.394 E0.01133
G1 X-7.921 Y11.395 E0.00458
G1 X-7.921 Y9.453 E0.03735
G1 X-7.901 Y9.265 E0.00364
G1 X-7.622 Y8.783 E0.01072
G1 X-7.425 Y8.655 E0.00452
G1 X-7.615 Y8.516 E0.00452
G1 X-8.468 Y7.662 E0.02321
G1 X-8.533 Y7.59 E0.00188
G1 X-9.247 Y6.702 E0.02192
G1 X-9.304 Y6.623 E0.00187
G1 X-9.917 Y5.663 E0.02192
G1 X-9.965 Y5.578 E0.00187
G1 X-10.471 Y4.557 E0.02192
G1 X-10.51 Y4.468 E0.00187
G1 X-10.903 Y3.399 E0.02192
G1 X-11.064 Y2.77 E0.01248
M106 S255
G1 E-0.63 F2100
;WIPE_START
G1 F7200
G1 X-11.004 Y3.003 E-0.0665
;WIPE_END
G1 E-0.0035 F2100
G1 Z38.4 F9000
; acceleration to travel
G1 X-7.106 Y7.09
; decel to extrusion
M204 P1000 T1000
G1 X-6.154 Y8.089
; end travel
M204 P1000 T1500
G1 Z38.2
G1 E0.7 F2100
M106 S255
G1 F1200
G1 X-6.401 Y8.089 E0.00476
G1 X-6.45 Y8.244 E0.00314
G1 X-6.657 Y8.384 E0.0048
M106 S255
;WIDTH:0.321633
M106 S255
G1 X-6.864 Y8.523 E0.00521
G1 X-7.015 Y8.529 E0.00315
G1 X-7.146 Y8.489 E0.00285
M106 S255
;WIDTH:0.301582
M106 S255
G1 X-7.276 Y8.45 E0.00264
G1 X-7.433 Y8.334 E0.00377
G1 X-8.286 Y7.481 E0.02336
G1 X-8.333 Y7.429 E0.00135
G1 X-9.046 Y6.541 E0.02205
G1 X-9.087 Y6.484 E0.00134
G1 X-9.701 Y5.524 E0.02206
G1 X-9.735 Y5.464 E0.00134
G1 X-10.241 Y4.443 E0.02206
G1 X-10.268 Y4.379 E0.00134
G1 X-10.661 Y3.31 E0.02206
G1 X-10.682 Y3.243 E0.00134
G1 X-10.831 Y2.694 E0.01103
M106 S255
;WIDTH:0.349305
M106 S255
G1 X-10.981 Y2.144 E0.01307
G1 X-11.011 Y1.89 E0.00587
M106 S255
;WIDTH:0.325505
M106 S255
G1 X-11.042 Y1.635 E0.00541
G1 X-11.06 Y1.593 E0.00097
M106 S255
;WIDTH:0.354063
M106 S255
G1 X-11.079 Y1.551 E0.00108
M106 S255
;WIDTH:0.382621
M106 S255
G1 X-11.097 Y1.509 E0.00117
M106 S255
;WIDTH:0.411178
M106 S255
G1 X-11.116 Y1.467 E0.00127
M106 S255
;WIDTH:0.439736
M106 S255
G1 X-11.135 Y1.424 E0.00137
M106 S255
;WIDTH:0.468294
M106 S255
G1 X-11.153 Y1.382 E0.00147
M106 S255
;WIDTH:0.496851
M106 S255
G1 X-11.172 Y1.34 E0.00157
M106 S255
;WIDTH:0.525409
M106 S255
G1 X-11.19 Y1.298 E0.00166
M106 S255
;WIDTH:0.553966
M106 S255
G1 X-11.209 Y1.255 E0.00177
G1 X-11.222 Y1.3 E0.00176
M106 S255
;WIDTH:0.525409
M106 S255
G1 X-11.234 Y1.344 E0.00166
M106 S255
;WIDTH:0.496851
M106 S255
G1 X-11.247 Y1.389 E0.00157
M106 S255
;WIDTH:0.468294
M106 S255
G1 X-11.26 Y1.433 E0.00147
M106 S255
;WIDTH:0.439736
M106 S255
G1 X-11.272 Y1.477 E0.00137
M106 S255
;WIDTH:0.411178
M106 S255
G1 X-11.285 Y1.522 E0.00127
M106 S255
;WIDTH:0.382621
M106 S255
G1 X-11.298 Y1.566 E0.00117
M106 S255
;WIDTH:0.354063
M106 S255
G1 X-11.31 Y1.61 E0.00108
M106 S255
;WIDTH:0.325505
M106 S255
G1 X-11.323 Y1.655 E0.00097
G1 X-11.317 Y1.919 E0.0056
M106 S255
;WIDTH:0.349305
M106 S255
G1 X-11.311 Y2.184 E0.00608
G1 X-11.324 Y2.754 E0.01306
M106 S255
;WIDTH:0.299999
M106 S255
G1 X-11.336 Y3.324 E0.01096
G1 X-11.336 Y11.635 E0.1599
G1 X-11.162 Y11.637 E0.00335
G1 X-8.748 Y11.638 E0.04643
G1 X-8.165 Y11.651 E0.01123
G1 X-7.664 Y11.653 E0.00963
G1 X-7.664 Y9.453 E0.04233
G1 X-7.65 Y9.319 E0.00259
G1 X-7.45 Y8.975 E0.00766
G1 X-7.288 Y8.867 E0.00375
G1 X-7.064 Y8.833 E0.00436
M106 S255
;WIDTH:0.321633
M106 S255
G1 X-6.84 Y8.799 E0.00472
G1 X-6.496 Y8.804 E0.00717
M106 S255
;WIDTH:0.299999
M106 S255
G1 X-6.153 Y8.809 E0.00661
G1 X-2.058 Y8.801 E0.07878
G1 X-1.867 Y8.798 E0.00367
G1 X-1.863 Y8.198 E0.01154
M106 S255
M106 S255
G1 X-1.867 Y8.089 E0.00211
G1 X-6.094 Y8.089 E0.08131
M106 S255
M204 P1000 T1000
G1 X-6.153 Y8.449 F9000
;WIDTH:0.505886
M106 S255
G1 F1200
G1 X-2.221 Y8.445 E0.13624
M106 S255
G1 E-0.63 F2100
;WIPE_START
G1 F7200
G1 X-2.461 Y8.445 E-0.0665
;WIPE_END
G1 E-0.0035 F2100
G1 Z38.4 F9000
; acceleration to travel
M204 P1000 T1500
G1 X-9.383 Y-0.595
; decel to extrusion
M204 P1000 T1000
G1 X-11.075 Y-2.805
; end travel
M204 P1000 T1500
G1 Z38.2
G1 E0.7 F2100
;WIDTH:0.299999
M106 S255
G1 F1200
G1 X-10.736 Y-3.892 E0.02192
G1 X-10.703 Y-3.984 E0.00187
G1 X-10.252 Y-5.03 E0.02192
G1 X-10.209 Y-5.118 E0.00187
G1 X-9.648 Y-6.109 E0.02192
G1 X-9.596 Y-6.191 E0.00188
G1 X-8.931 Y-7.117 E0.02191
G1 X-8.325 Y-7.801 E0.01759
G1 X-7.921 Y-8.223 E0.01124
G1 X-7.921 Y-14.377 E0.11839
G1 X-8.499 Y-14.389 E0.01113
G1 X-9.139 Y-14.376 E0.0123
G1 X-10.143 Y-14.39 E0.01931
G1 X-11.079 Y-14.388 E0.01801
G1 X-11.079 Y-3.944 E0.20093
G1 X-11.075 Y-2.865 E0.02076
M106 S255
M204 P1000 T1000
G1 X-11.075 Y-1.939 F9000
;WIDTH:0.469205
M106 S255
G1 F1200
G1 X-11.066 Y-1.965 E0.00088
G1 X-11.034 Y-2.065 E0.00337
M106 S255
;WIDTH:0.441004
M106 S255
G1 X-11.002 Y-2.164 E0.00311
M106 S255
;WIDTH:0.412803
M106 S255
G1 X-10.97 Y-2.263 E0.00289
M106 S255
;WIDTH:0.384602
M106 S255
G1 X-10.938 Y-2.362 E0.00267
M106 S255
;WIDTH:0.356401
M106 S255
G1 X-10.906 Y-2.462 E0.00245
M106 S255
;WIDTH:0.3282
M106 S255
G1 X-10.874 Y-2.561 E0.00223
M106 S255
;WIDTH:0.299999
M106 S255
G1 X-10.842 Y-2.66 E0.002
G1 X-10.825 Y-2.728 E0.00134
G1 X-10.49 Y-3.817 E0.02192
G1 X-10.466 Y-3.882 E0.00134
G1 X-10.016 Y-4.929 E0.02192
G1 X-9.985 Y-4.991 E0.00133
G1 X-9.425 Y-5.983 E0.02192
G1 X-9.387 Y-6.041 E0.00134
G1 X-8.723 Y-6.967 E0.02192
G1 X-8.133 Y-7.629 E0.01705
G1 X-7.664 Y-8.112 E0.01296
G1 X-7.664 Y-14.628 E0.12536
G1 X-8.499 Y-14.646 E0.01607
G1 X-9.144 Y-14.633 E0.01241
G1 X-10.139 Y-14.647 E0.01914
G1 X-10.16 Y-14.647 E0.00041
G1 X-11.336 Y-14.644 E0.02262
G1 X-11.336 Y-2.707 E0.22964
G1 X-11.323 Y-2.604 E0.00201
M106 S255
;WIDTH:0.3282
M106 S255
G1 X-11.31 Y-2.5 E0.00223
M106 S255
;WIDTH:0.356401
M106 S255
G1 X-11.297 Y-2.397 E0.00244
M106 S255
;WIDTH:0.384602
M106 S255
G1 X-11.285 Y-2.293 E0.00267
M106 S255
;WIDTH:0.412803
M106 S255
G1 X-11.272 Y-2.19 E0.00289
M106 S255
;WIDTH:0.441004
M106 S255
G1 X-11.259 Y-2.086 E0.00311
M106 S255
;WIDTH:0.469205
M106 S255
G1 X-11.246 Y-1.982 E0.00333
M106 S255
;WIDTH:0.497406
M106 S255
G1 X-11.233 Y-1.879 E0.00355
M106 S255
;WIDTH:0.525607
M106 S255
G1 X-11.22 Y-1.775 E0.00377
M106 S255
;WIDTH:0.553807
M106 S255
G1 X-11.208 Y-1.672 E0.00399
M106 S255
;WIDTH:0.582008
M106 S255
G1 X-11.195 Y-1.568 E0.00421
M106 S255
M106 S255
G1 X-11.163 Y-1.667 E0.00421
M106 S255
;WIDTH:0.553807
M106 S255
G1 X-11.131 Y-1.767 E0.00399
M106 S255
;WIDTH:0.525607
M106 S255
G1 X-11.099 Y-1.866 E0.00377
M106 S255
;WIDTH:0.497406
M106 S255
G1 X-11.093 Y-1.882 E0.00058
M106 S255
G1 E-0.63 F2100
;WIPE_START
G1 F7200
G1 X-11.099 Y-1.866 E-0.00476
G1 X-11.131 Y-1.767 E-0.02891
G1 X-11.163 Y-1.667 E-0.02892
G1 X-11.167 Y-1.654 E-0.00391
;WIPE_END
G1 E-0.0035 F2100
G1 Z38.4 F9000
; acceleration to travel
M204 P1000 T1500
G1 X-8.339 Y5.907
; decel to extrusion
M204 P1000 T1000
G1 X-7.648 Y7.755
; end travel
M204 P1000 T1500
G1 Z38.2
G1 E0.7 F2100
;WIDTH:0.299999
M106 S255
G1 F1200
G1 X-8.104 Y7.299 E0.01241
G1 X-8.132 Y7.268 E0.0008
G1 X-8.846 Y6.38 E0.02192
G1 X-8.87 Y6.346 E0.0008
G1 X-9.484 Y5.386 E0.02192
G1 X-9.504 Y5.35 E0.0008
G1 X-10.011 Y4.329 E0.02192
G1 X-10.027 Y4.291 E0.0008
G1 X-10.42 Y3.221 E0.02192
G1 X-10.432 Y3.181 E0.0008
G1 X-10.707 Y2.076 E0.02192
G1 X-10.828 Y1.204 E0.01694
G1 X-10.872 Y0.864 E0.00658
G1 X-10.903 Y-0.274 E0.02192
