; generated by SuperSlicer 2.5.59.13 on 2025-11-06 at 06:10:33 UTC

; 

; external perimeters extrusion width = 0.30mm
; perimeters extrusion width = 0.30mm
; infill extrusion width = 0.30mm
; solid infill extrusion width = 0.30mm
; top infill extrusion width = 0.30mm


M106 S255
M140 S50 ; set bed temperature
G10 P0 R220 ; sets the standby temperature
G10 P0 S220 ; set temperature
;TYPE:Custom
G1 E0.7 F1800
G21 ; set units to millimeters
G90 ; use absolute coordinates
M83 ; use relative distances for extrusion
; FILAMENT_START_GCODE
G10 P0 S220 ; set temperature
M116 ; wait for temperature to be reached
M190 S50 ; set bed temperature and wait for it to be reached
;LAYER_CHANGE
;Z:20.2
;HEIGHT:20.200001
; BEFORE_LAYER_CHANGE
;20.2
G92 E0

G1 E-0.7 F2100
G1 Z0.2 F9000
G1 Z20.2
; AFTER_LAYER_CHANGE
;20.2
G1 Z20.4
M204 P1000 T1000
G1 X4.442 Y-10.729
G1 Z20.2
G1 E0.7 F2100
;TYPE:Solid infill
;WIDTH:0.287388
;HEIGHT:0.2
M106 S255
G1 F1200
G1 X4.118 Y-11.053 E0.00846
G1 X3.257 Y-11.55 E0.0183
G1 X3.87 Y-10.938 E0.01597
G1 X3.326 Y-11.118 E0.01056
G1 X2.397 Y-12.047 E0.02421
G1 X1.537 Y-12.543 E0.01831
G1 X2.838 Y-11.242 E0.03391
G1 X2.356 Y-11.361 E0.00915
G1 X0.677 Y-13.04 E0.04377
G1 X0.137 Y-13.352 E0.0115
G1 X-0.131 Y-13.484 E0.00549
G1 X1.923 Y-11.43 E0.05354
G1 X1.501 Y-11.488 E0.00786
G1 X-0.732 Y-13.721 E0.0582
G1 X-0.833 Y-13.756 E0.00198
G1 X-1.203 Y-13.829 E0.00694
G1 X1.079 Y-11.547 E0.05949
G1 X0.888 Y-11.573 E0.00357
G1 X0.683 Y-11.579 E0.00377
G1 X-1.611 Y-13.874 E0.05981
G1 X-1.876 Y-13.891 E0.00487
G1 X-1.992 Y-13.891 E0.00215
G1 X0.309 Y-11.591 E0.05996
G1 X-0.066 Y-11.602 E0.00691
G1 X-2.356 Y-13.891 E0.05967
G1 X-2.719 Y-13.891 E0.0067
G1 X-0.422 Y-11.594 E0.05988
G1 X-0.772 Y-11.58 E0.00645
G1 X-3.083 Y-13.891 E0.06024
G1 X-3.446 Y-13.891 E0.0067
G1 X-1.104 Y-11.549 E0.06105
G1 X-1.431 Y-11.512 E0.00606
G1 X-3.81 Y-13.891 E0.062
G1 X-4.173 Y-13.891 E0.0067
G1 X-1.753 Y-11.471 E0.06308
G1 X-2.058 Y-11.412 E0.00572
G1 X-4.537 Y-13.891 E0.0646
G1 X-4.901 Y-13.891 E0.0067
G1 X-2.363 Y-11.354 E0.06613
G1 X-2.639 Y-11.301 E0.00518
G1 X-2.667 Y-11.294 E0.00052
G1 X-5.264 Y-13.891 E0.0677
G1 X-5.628 Y-13.891 E0.0067
G1 X-2.954 Y-11.218 E0.06968
G1 X-3.242 Y-11.142 E0.00548
G1 X-5.991 Y-13.891 E0.07166
G1 X-6.355 Y-13.891 E0.0067
G1 X-3.521 Y-11.057 E0.07387
G1 X-3.791 Y-10.964 E0.00527
G1 X-6.718 Y-13.891 E0.07629
G1 X-7.082 Y-13.891 E0.0067
G1 X-4.062 Y-10.871 E0.07872
G1 X-4.119 Y-10.851 E0.00111
G1 X-4.319 Y-10.765 E0.00403
G1 X-7.446 Y-13.891 E0.08147
G1 X-7.809 Y-13.891 E0.0067
G1 X-4.574 Y-10.656 E0.08433
G1 X-4.828 Y-10.546 E0.0051
G1 X-8.173 Y-13.891 E0.08718
G1 X-8.536 Y-13.891 E0.0067
G1 X-5.078 Y-10.433 E0.09014
G1 X-5.318 Y-10.309 E0.00497
G1 X-8.9 Y-13.891 E0.09336
G1 X-9.263 Y-13.891 E0.0067
G1 X-5.558 Y-10.186 E0.09657
G1 X-5.681 Y-10.123 E0.00255
G1 X-5.792 Y-10.056 E0.00237
G1 X-9.627 Y-13.891 E0.09997
G1 X-9.99 Y-13.891 E0.0067
G1 X-6.018 Y-9.918 E0.10355
G1 X-6.244 Y-9.781 E0.00487
G1 X-10.354 Y-13.891 E0.10714
G1 X-10.718 Y-13.891 E0.0067
G1 X-6.462 Y-9.636 E0.11091
G1 X-6.674 Y-9.484 E0.00481
G1 X-11.081 Y-13.891 E0.11487
G1 X-11.445 Y-13.891 E0.0067
G1 X-6.885 Y-9.332 E0.11884
G1 X-7.097 Y-9.18 E0.00481
G1 X-11.808 Y-13.891 E0.1228
G1 X-12.172 Y-13.891 E0.0067
G1 X-7.299 Y-9.018 E0.12701
G1 X-7.498 Y-8.854 E0.00476
G1 X-12.535 Y-13.891 E0.13129
G1 X-12.899 Y-13.891 E0.0067
G1 X-7.696 Y-8.688 E0.1356
G1 X-7.883 Y-8.512 E0.00474
G1 X-13.263 Y-13.891 E0.14021
G1 X-13.626 Y-13.891 E0.0067
G1 X-8.071 Y-8.335 E0.1448
G1 X-8.243 Y-8.173 E0.00436
G1 X-8.256 Y-8.158 E0.00038
G1 X-13.891 Y-13.793 E0.14686
G1 X-13.891 Y-13.429 E0.0067
G1 X-8.428 Y-7.966 E0.14239
G1 X-8.6 Y-7.774 E0.00474
G1 X-13.891 Y-13.065 E0.13792
G1 X-13.891 Y-12.702 E0.0067
G1 X-8.771 Y-7.582 E0.13344
G1 X-8.943 Y-7.39 E0.00475
G1 X-13.891 Y-12.338 E0.12897
G1 X-13.891 Y-11.975 E0.00671
G1 X-9.102 Y-7.185 E0.12482
G1 X-9.256 Y-6.976 E0.0048
G1 X-13.891 Y-11.611 E0.1208
G1 X-13.891 Y-11.248 E0.00671
G1 X-9.41 Y-6.767 E0.11679
G1 X-9.564 Y-6.557 E0.00479
G1 X-13.891 Y-10.884 E0.11277
G1 X-13.891 Y-10.52 E0.0067
G1 X-9.712 Y-6.342 E0.10891
G1 X-9.846 Y-6.112 E0.0049
G1 X-13.891 Y-10.157 E0.10543
G1 X-13.891 Y-9.793 E0.0067
G1 X-9.98 Y-5.882 E0.10195
G1 X-10.113 Y-5.652 E0.0049
G1 X-13.891 Y-9.43 E0.09846
G1 X-13.891 Y-9.066 E0.0067
G1 X-10.247 Y-5.422 E0.09498
G1 X-10.355 Y-5.236 E0.00398
G1 X-10.376 Y-5.188 E0.00096
G1 X-13.891 Y-8.703 E0.0916
G1 X-13.891 Y-8.339 E0.0067
G1 X-10.487 Y-4.935 E0.08872
G1 X-10.598 Y-4.683 E0.00508
G1 X-13.891 Y-7.975 E0.08583
G1 X-13.891 Y-7.612 E0.0067
G1 X-10.709 Y-4.43 E0.08293
G1 X-10.82 Y-4.178 E0.00508
G1 X-13.891 Y-7.248 E0.08004
G1 X-13.891 Y-6.885 E0.0067
G1 X-10.916 Y-3.91 E0.07754
G1 X-11.003 Y-3.633 E0.00534
G1 X-13.891 Y-6.521 E0.07527
G1 X-13.891 Y-6.158 E0.0067
G1 X-11.09 Y-3.357 E0.073
G1 X-11.178 Y-3.081 E0.00534
G1 X-13.891 Y-5.794 E0.07072
G1 X-13.891 Y-5.431 E0.0067
G1 X-11.257 Y-2.796 E0.06866
G1 X-11.319 Y-2.495 E0.00567
G1 X-13.891 Y-5.067 E0.06705
G1 X-13.891 Y-4.703 E0.0067
G1 X-11.381 Y-2.193 E0.06543
G1 X-11.442 Y-1.891 E0.00568
G1 X-13.891 Y-4.34 E0.06382
G1 X-13.891 Y-3.976 E0.0067
G1 X-11.487 Y-1.572 E0.06267
G1 X-11.518 Y-1.24 E0.00614
G1 X-13.891 Y-3.613 E0.06185
G1 X-13.891 Y-3.249 E0.0067
G1 X-11.55 Y-0.908 E0.06101
G1 X-11.582 Y-0.576 E0.00615
G1 X-13.891 Y-2.886 E0.06019
G1 X-13.891 Y-2.522 E0.0067
G1 X-11.592 Y-0.223 E0.05992
G1 X-11.585 Y0.147 E0.00683
G1 X-13.891 Y-2.158 E0.06009
G1 X-13.891 Y-1.795 E0.0067
G1 X-11.578 Y0.518 E0.06028
G1 X-11.573 Y0.841 E0.00596
G1 X-11.566 Y0.894 E0.00098
G1 X-13.891 Y-1.431 E0.0606
G1 X-13.891 Y-1.068 E0.0067
G1 X-11.515 Y1.309 E0.06194
G1 X-11.463 Y1.724 E0.00771
G1 X-13.891 Y-0.704 E0.06328
G1 X-13.891 Y-0.341 E0.0067
G1 X-11.396 Y2.154 E0.06502
G1 X-11.286 Y2.628 E0.00897
G1 X-13.891 Y0.023 E0.06791
G1 X-13.891 Y0.386 E0.0067
G1 X-11.175 Y3.102 E0.07078
G1 X-11.152 Y3.204 E0.00192
G1 X-10.997 Y3.645 E0.00861
G1 X-13.891 Y0.75 E0.07545
G1 X-13.891 Y1.114 E0.0067
G1 X-10.799 Y4.206 E0.08059
G1 X-10.701 Y4.485 E0.00546
G1 X-10.529 Y4.839 E0.00725
G1 X-13.891 Y1.477 E0.08762
G1 X-13.891 Y1.841 E0.0067
G1 X-9.865 Y5.866 E0.10493
M106 S255
G1 E-0.63 F2100
;WIPE_START
G1 F7200
G1 X-10.035 Y5.697 E-0.0665
;WIPE_END
G1 E-0.0035 F2100
G1 Z20.4 F9000
; acceleration to travel
M204 P1000 T1500
G1 X1.312 Y9.739
; decel to extrusion
M204 P1000 T1000
G1 X4.084 Y10.727
; end travel
M204 P1000 T1500
G1 Z20.2
G1 E0.7 F2100
M106 S255
G1 F1200
G1 X4.291 Y10.934 E0.0054
G1 X4.253 Y10.975 E0.00103
G1 X4.073 Y11.079 E0.00384
G1 X3.909 Y10.915 E0.00427
G1 X3.771 Y10.97 E0.00274
G1 X3.638 Y11.008 E0.00254
G1 X3.842 Y11.212 E0.00533
G1 X3.612 Y11.345 E0.0049
G1 X3.355 Y11.089 E0.0067
G1 X3.072 Y11.169 E0.00542
G1 X3.381 Y11.478 E0.00807
G1 X3.151 Y11.612 E0.0049
G1 X2.789 Y11.25 E0.00943
G1 X2.566 Y11.313 E0.00427
G1 X2.5 Y11.324 E0.00124
G1 X2.921 Y11.745 E0.01095
G1 X2.69 Y11.878 E0.00491
G1 X2.19 Y11.377 E0.01304
G1 X1.879 Y11.43 E0.00581
G1 X2.46 Y12.011 E0.01513
G1 X2.229 Y12.144 E0.0049
G1 X1.569 Y11.483 E0.01721
G1 X1.331 Y11.524 E0.00445
G1 X1.251 Y11.529 E0.00148
G1 X1.999 Y12.277 E0.0195
G1 X1.768 Y12.41 E0.0049
G1 X0.908 Y11.55 E0.02242
G1 X0.565 Y11.571 E0.00633
G1 X1.538 Y12.543 E0.02534
G1 X1.307 Y12.676 E0.0049
G1 X0.223 Y11.592 E0.02827
G1 X0.081 Y11.6 E0.00262
G1 X-0.143 Y11.59 E0.00412
G1 X1.077 Y12.809 E0.03178
G1 X0.846 Y12.942 E0.0049
G1 X-0.524 Y11.572 E0.03572
G1 X-0.906 Y11.554 E0.00704
G1 X0.616 Y13.075 E0.03964
G1 X0.385 Y13.208 E0.00491
G1 X-1.302 Y11.521 E0.04398
G1 X-1.733 Y11.454 E0.00803
G1 X0.155 Y13.342 E0.04921
G1 X0.134 Y13.353 E0.00042
G1 X-0.087 Y13.464 E0.00456
G1 X-2.164 Y11.387 E0.05414
G1 X-2.409 Y11.348 E0.00457
G1 X-2.624 Y11.29 E0.0041
G1 X-0.332 Y13.582 E0.05972
G1 X-0.602 Y13.676 E0.00526
G1 X-3.121 Y11.156 E0.06566
G1 X-3.619 Y11.022 E0.0095
G1 X-0.878 Y13.763 E0.07144
G1 X-1.181 Y13.823 E0.0057
G1 X-4.209 Y10.795 E0.07892
G1 X-4.698 Y10.608 E0.00966
G1 X-4.827 Y10.541 E0.00267
G1 X-1.501 Y13.867 E0.08668
G1 X-1.843 Y13.889 E0.00631
G1 X-5.832 Y9.899 E0.10399
M106 S255
G1 E-0.63 F2100
;WIPE_START
G1 F7200
G1 X-5.663 Y10.069 E-0.0665
;WIPE_END
G1 E-0.0035 F2100
G1 Z20.4 F9000
; acceleration to travel
G1 X-2.795 Y13.229
; decel to extrusion
M204 P1000 T1000
G1 X-2.094 Y14.002
; end travel
M204 P1000 T1500
G1 Z20.2
G1 E0.7 F2100
M106 S255
G1 F1200
G1 X-6.517 Y9.579 E0.11528
G1 X-6.95 Y9.29 E0.0096
G1 X-7.912 Y8.486 E0.0231
G1 X-8.713 Y7.662 E0.02118
G1 X-9.488 Y6.677 E0.0231
G1 X-9.606 Y6.49 E0.00407
G1 X-13.891 Y2.204 E0.1117
G1 X-13.891 Y2.568 E0.0067
G1 X-2.568 Y13.891 E0.29512
G1 X-2.931 Y13.891 E0.0067
G1 X-13.891 Y2.931 E0.28565
G1 X-13.891 Y3.295 E0.0067
G1 X-3.295 Y13.891 E0.27618
G1 X-3.659 Y13.891 E0.0067
G1 X-13.891 Y3.659 E0.2667
G1 X-13.891 Y4.022 E0.0067
G1 X-4.022 Y13.891 E0.25722
G1 X-4.386 Y13.891 E0.0067
G1 X-13.891 Y4.386 E0.24775
G1 X-13.891 Y4.749 E0.0067
G1 X-4.749 Y13.891 E0.23827
G1 X-5.113 Y13.891 E0.0067
G1 X-13.891 Y5.113 E0.22879
G1 X-13.891 Y5.476 E0.0067
G1 X-5.476 Y13.891 E0.21932
G1 X-5.84 Y13.891 E0.0067
G1 X-13.891 Y5.84 E0.20985
G1 X-13.891 Y6.204 E0.0067
G1 X-6.204 Y13.891 E0.20036
G1 X-6.567 Y13.891 E0.0067
G1 X-13.891 Y6.567 E0.1909
G1 X-13.891 Y6.931 E0.0067
G1 X-6.931 Y13.891 E0.18141
G1 X-7.294 Y13.891 E0.0067
G1 X-13.891 Y7.294 E0.17194
G1 X-13.891 Y7.658 E0.0067
G1 X-7.658 Y13.891 E0.16247
G1 X-8.021 Y13.891 E0.0067
G1 X-13.891 Y8.021 E0.15299
G1 X-13.891 Y8.385 E0.0067
G1 X-8.385 Y13.891 E0.14351
G1 X-8.748 Y13.891 E0.0067
G1 X-13.891 Y8.748 E0.13403
G1 X-13.891 Y9.112 E0.00671
G1 X-9.112 Y13.891 E0.12456
G1 X-9.476 Y13.891 E0.0067
G1 X-13.891 Y9.476 E0.11508
G1 X-13.891 Y9.839 E0.0067
G1 X-9.839 Y13.891 E0.10561
G1 X-10.203 Y13.891 E0.0067
G1 X-13.891 Y10.203 E0.09613
G1 X-13.891 Y10.566 E0.0067
G1 X-10.566 Y13.891 E0.08666
G1 X-10.93 Y13.891 E0.0067
G1 X-13.891 Y10.93 E0.07718
G1 X-13.891 Y11.293 E0.0067
G1 X-11.293 Y13.891 E0.06771
G1 X-11.657 Y13.891 E0.0067
G1 X-13.891 Y11.657 E0.05823
G1 X-13.891 Y12.021 E0.0067
G1 X-12.021 Y13.891 E0.04875
G1 X-12.384 Y13.891 E0.0067
G1 X-13.891 Y12.384 E0.03928
G1 X-13.891 Y12.748 E0.0067
G1 X-12.748 Y13.891 E0.0298
G1 X-13.111 Y13.891 E0.0067
G1 X-13.891 Y13.111 E0.02033
G1 X-13.891 Y13.475 E0.0067
G1 X-13.475 Y13.891 E0.01085
G1 X-13.838 Y13.891 E0.0067
G1 X-14.002 Y13.728 E0.00426
M106 S255
M204 P1000 T1000
G1 X-14.079 Y14.079 F9000
;TYPE:Internal perimeter
;WIDTH:0.299999
M106 S255
G1 F1200
G1 X-1.869 Y14.079 E0.23489
G1 X-1.332 Y14.044 E0.01036
G1 X-0.77 Y13.933 E0.01102
G1 X-0.226 Y13.743 E0.01108
G1 X0.223 Y13.519 E0.00967
G1 X4.355 Y11.133 E0.09178
G1 X4.407 Y11.091 E0.0013
M106 S255
;WIDTH:0.324654
M106 S255
G1 X4.46 Y11.049 E0.00142
M106 S255
;WIDTH:0.349308
M106 S255
G1 X4.512 Y11.007 E0.00154
M106 S255
;WIDTH:0.373963
M106 S255
G1 X4.565 Y10.965 E0.00167
M106 S255
;WIDTH:0.398617
M106 S255
G1 X4.617 Y10.922 E0.00179
M106 S255
;WIDTH:0.423271
M106 S255
G1 X4.67 Y10.88 E0.00191
G1 X4.903 Y10.755 E0.00753
M106 S255
;WIDTH:0.391157
M106 S255
G1 X5.135 Y10.63 E0.00689
G1 X6.123 Y10.068 E0.0296
G1 X6.461 Y9.868 E0.01024
G1 X6.461 Y9.442 E0.0111
M106 S255
;WIDTH:0.385461
M106 S255
G1 X6.046 Y9.725 E0.01285
G1 X5.96 Y9.777 E0.0026
G1 X4.965 Y10.326 E0.02912
G1 X4.734 Y10.433 E0.00653
M106 S255
;WIDTH:0.423271
M106 S255
G1 X4.502 Y10.54 E0.00725
G1 X4.437 Y10.555 E0.00192
M106 S255
;WIDTH:0.398617
M106 S255
G1 X4.372 Y10.571 E0.00179
M106 S255
;WIDTH:0.373963
M106 S255
G1 X4.306 Y10.587 E0.00167
M106 S255
;WIDTH:0.349308
M106 S255
G1 X4.241 Y10.603 E0.00154
M106 S255
;WIDTH:0.324654
M106 S255
G1 X4.175 Y10.619 E0.00142
M106 S255
;WIDTH:0.299999
M106 S255
G1 X4.11 Y10.634 E0.0013
G1 X3.714 Y10.791 E0.00819
G1 X2.623 Y11.107 E0.02185
G1 X2.528 Y11.129 E0.00187
G1 X1.409 Y11.325 E0.02185
G1 X1.313 Y11.337 E0.00187
G1 X0.18 Y11.412 E0.02184
G1 X-0.654 Y11.381 E0.01606
G1 X-1.304 Y11.332 E0.01254
G1 X-2.271 Y11.185 E0.01883
G1 X-2.366 Y11.165 E0.00187
G1 X-3.465 Y10.875 E0.02185
G1 X-3.557 Y10.845 E0.00187
G1 X-4.625 Y10.435 E0.022
G1 X-4.714 Y10.395 E0.00188
G1 X-5.724 Y9.875 E0.02187
G1 X-5.808 Y9.826 E0.00187
G1 X-6.757 Y9.199 E0.02186
G1 X-6.835 Y9.141 E0.00187
G1 X-7.71 Y8.417 E0.02187
G1 X-8.574 Y7.535 E0.02373
G1 X-8.637 Y7.462 E0.00187
G1 X-9.337 Y6.566 E0.02187
G1 X-9.392 Y6.487 E0.00187
G1 X-9.991 Y5.52 E0.02186
G1 X-10.038 Y5.435 E0.00187
G1 X-10.529 Y4.41 E0.02187
G1 X-10.566 Y4.32 E0.00187
G1 X-10.943 Y3.248 E0.02187
G1 X-10.97 Y3.155 E0.00187
G1 X-11.23 Y2.048 E0.02186
G1 X-11.247 Y1.952 E0.00188
G1 X-11.386 Y0.824 E0.02186
G1 X-11.392 Y0.727 E0.00187
G1 X-11.408 Y-0.409 E0.02187
G1 X-11.404 Y-0.506 E0.00187
G1 X-11.297 Y-1.638 E0.02187
G1 X-11.283 Y-1.734 E0.00187
G1 X-11.055 Y-2.848 E0.02187
G1 X-11.03 Y-2.942 E0.00187
G1 X-10.683 Y-4.024 E0.02187
G1 X-10.648 Y-4.115 E0.00187
G1 X-10.186 Y-5.154 E0.02187
G1 X-10.142 Y-5.24 E0.00187
G1 X-9.571 Y-6.223 E0.02187
G1 X-9.518 Y-6.304 E0.00187
G1 X-8.843 Y-7.22 E0.02187
G1 X-8.152 Y-7.997 E0.02
G1 X-7.59 Y-8.534 E0.01497
G1 X-7.068 Y-8.967 E0.01304
G1 X-6.246 Y-9.56 E0.0195
G1 X-5.588 Y-9.96 E0.01482
G1 X-4.98 Y-10.274 E0.01317
G1 X-4.049 Y-10.677 E0.01952
G1 X-3.327 Y-10.925 E0.01468
G1 X-2.66 Y-11.104 E0.01328
G1 X-1.663 Y-11.297 E0.01954
G1 X-0.978 Y-11.377 E0.01327
G1 X-0.255 Y-11.414 E0.01393
G1 X0.801 Y-11.391 E0.02031
G1 X1.545 Y-11.316 E0.0144
G1 X2.238 Y-11.197 E0.01353
G1 X3.226 Y-10.953 E0.01957
G1 X3.931 Y-10.723 E0.01426
G1 X4.066 Y-10.68 E0.00274
M106 S255
;WIDTH:0.326837
M106 S255
G1 X4.202 Y-10.636 E0.00303
M106 S255
;WIDTH:0.353674
M106 S255
G1 X4.338 Y-10.593 E0.00331
M106 S255
;WIDTH:0.380512
M106 S255
G1 X4.473 Y-10.549 E0.00359
M106 S255
;WIDTH:0.407349
M106 S255
G1 X4.609 Y-10.506 E0.00389
G1 X5.063 Y-10.272 E0.01394
M106 S255
;WIDTH:0.37316
M106 S255
G1 X5.518 Y-10.038 E0.01263
G1 X6.154 Y-9.666 E0.01821
G1 X6.465 Y-9.455 E0.00928
G1 X6.465 Y-9.87 E0.01027
G1 X5.746 Y-10.289 E0.02055
G1 X5.293 Y-10.541 E0.01281
M106 S255
;WIDTH:0.403307
M106 S255
G1 X4.84 Y-10.793 E0.01397
G1 X4.701 Y-10.868 E0.00428
M106 S255
;WIDTH:0.423268
M106 S255
G1 X4.561 Y-10.943 E0.00451
G1 X4.495 Y-10.993 E0.00236
M106 S255
;WIDTH:0.398615
M106 S255
G1 X4.429 Y-11.043 E0.00221
M106 S255
;WIDTH:0.373961
M106 S255
G1 X4.363 Y-11.093 E0.00205
M106 S255
;WIDTH:0.349307
M106 S255
G1 X4.297 Y-11.143 E0.0019
M106 S255
;WIDTH:0.324653
M106 S255
G1 X4.23 Y-11.193 E0.00175
M106 S255
;WIDTH:0.299999
M106 S255
G1 X4.164 Y-11.243 E0.0016
G1 X0.225 Y-13.518 E0.08751
G1 X-0.27 Y-13.762 E0.01062
G1 X-0.785 Y-13.938 E0.01046
G1 X-1.318 Y-14.043 E0.01047
G1 X-1.87 Y-14.079 E0.01062
G1 X-14.079 Y-14.079 E0.23489
G1 X-14.079 Y14.019 E0.54056
M106 S255
G1 X-14.336 Y14.336 F9000
M106 S255
G1 F1200
G1 X-1.861 Y14.336 E0.24
G1 X-1.299 Y14.3 E0.01084
G1 X-0.702 Y14.182 E0.01169
G1 X-0.126 Y13.981 E0.01174
G1 X0.345 Y13.745 E0.01014
G1 X6.76 Y10.041 E0.14252
G1 X6.76 Y8.87 E0.02254
G1 X5.878 Y9.481 E0.02066
G1 X5.819 Y9.518 E0.00133
G1 X4.821 Y10.06 E0.02186
G1 X4.012 Y10.397 E0.01684
G1 X3.642 Y10.544 E0.00767
G1 X2.551 Y10.86 E0.02185
G1 X2.484 Y10.876 E0.00133
G1 X1.365 Y11.072 E0.02185
G1 X1.296 Y11.081 E0.00134
G1 X0.163 Y11.155 E0.02184
G1 X-0.643 Y11.125 E0.01552
G1 X-1.265 Y11.078 E0.01201
G1 X-2.233 Y10.931 E0.01882
G1 X-2.301 Y10.917 E0.00134
G1 X-3.399 Y10.626 E0.02185
G1 X-3.465 Y10.605 E0.00134
G1 X-4.533 Y10.195 E0.022
G1 X-4.596 Y10.166 E0.00134
G1 X-5.607 Y9.646 E0.02187
G1 X-5.667 Y9.611 E0.00133
G1 X-6.615 Y8.985 E0.02187
G1 X-6.671 Y8.943 E0.00134
G1 X-7.546 Y8.219 E0.02186
G1 X-8.389 Y7.356 E0.0232
G1 X-8.435 Y7.304 E0.00134
G1 X-9.134 Y6.408 E0.02186
G1 X-9.174 Y6.351 E0.00134
G1 X-9.773 Y5.385 E0.02186
G1 X-9.806 Y5.324 E0.00134
G1 X-10.297 Y4.299 E0.02187
G1 X-10.323 Y4.235 E0.00133
G1 X-10.701 Y3.163 E0.02187
G1 X-10.72 Y3.096 E0.00133
G1 X-10.98 Y1.989 E0.02187
G1 X-10.992 Y1.921 E0.00134
G1 X-11.13 Y0.793 E0.02186
G1 X-11.135 Y0.724 E0.00134
G1 X-11.151 Y-0.413 E0.02187
G1 X-11.148 Y-0.482 E0.00133
G1 X-11.041 Y-1.614 E0.02187
G1 X-11.031 Y-1.683 E0.00134
G1 X-10.803 Y-2.796 E0.02186
G1 X-10.785 Y-2.863 E0.00134
